!!!!SEGMENT: pl-cz--iii-740--001_zebrowski-marcin-jozef--ave-maris-stella.krn
!!!cenid: 17xx:2329
!!!COM: Żebrowski, Marcin Józef
!!!COM-rismID: pe30020322
!!!CDT: 1702-1770/06/29
!!!CNT: Polish
!!!OTL: Ave maris stella
!!!PDT:
!!!AGN:
!!!SMS-siglum: PL-CZ
!!!SMS-shelfmark: III-740
!!!SMS-shelfwork: 001 W
!!!SMS-variant:
!!!SMS-altvar:
!!!NIFC-rismSourceID: 300033491
!!!NIFC-rismChildID: 300033492
!!!NIFC-islandoraID: pl-cz:25203
!!!URL-pdf-islandora: https://repozytorium.nifc.pl/islandora/object/pl-cz%3A25203/datastream/PDF/view
!!!URL-scan: https://polish.musicsources.pl/pl/lokalizacje/galeria/rekopisy/1471 @EN{Scan on Polish Music Sources Website} @PL{Skany w portalu Dziedzictwo Muzyki Polskiej w otwartym dostępie}
!!!IIIF:
!!!ONB-nifc: UWAGA: w zbiorze 1. Ave maris stella, 2. Eia consonate
!!!AIN: 1 bass 1 clrno 1 organ 1 viola 1 viole 1 violn
!!!key: D
**kern	**fba	**dynam	**kern	**dynam	**kern	**dynam	**kern	**dynam	**kern	**dynam	**kern	**text	**kern	**dynam
*	*	*	*group1	*	*group1	*	*group1	*	*group1	*	*	*	*	*
*part7	*part7	*part7	*part6	*part6	*part5	*part5	*part4	*part4	*part3	*part3	*part2	*part2	*part1	*part1
*staff7	*	*	*staff6	*	*staff5	*	*staff4	*	*staff3	*	*staff2	*staff2	*staff1	*
*I"Baſso pro Organo.	*	*	*I"Violone.	*	*I"Alto Viola.	*	*I"Violino Secondo.	*	*I"Violino Primo.	*	*I"Basso Solo.	*	*I"Clarino Solo. Ex D.	*
*I'org	*	*	*I'vlne	*	*I'a-vla	*	*I'vl II	*	*I'vl I	*	*I'B	*	*I'clno in D	*
*Iorgan	*	*	*Iviole	*	*Iviola	*	*	*	*Ivioln	*	*Ibass	*	*Iclrno	*
*ICklav	*	*	*ICstr	*	*ICstr	*	*	*	*ICstr	*	*ICvox	*	*ICbras	*
*clefF4	*	*	*clefF4	*	*clefC3	*	*clefG2	*	*clefG2	*	*clefF4	*	*clefG2	*
*	*	*	*	*	*	*	*	*	*	*	*	*	*ITrd-1c-2	*
*k[f#c#]	*	*	*k[f#c#]	*	*k[f#c#]	*	*k[f#c#]	*	*k[f#c#]	*	*k[f#c#]	*	*k[f#c#]	*
*D:	*	*	*D:	*	*D:	*	*D:	*	*D:	*	*D:	*	*D:	*
*M3/8	*	*	*M3/8	*	*M3/8	*	*M3/8	*	*M3/8	*	*M3/8	*	*M3/8	*
=1	=1	=1	=1	=1	=1	=1	=1	=1	=1	=1	=1	=1	=1	=1
!	!	!	!	!	!	!	!	!	!	!	!LO:TX:a:t=28.	!	!	!
!	!	!	!LO:TX:b:rj:t=Aria	!	!	!	!LO:TX:b:rj:t=Aria	!	!LO:TX:b:rj:t=Aria	!	!LO:TX:b:rj:t=Aria	!	!LO:TX:b:rj:t=Aria	!
!LO:TX:a:i:t=Allegro Aſsai	!	!	!LO:TX:a:i:t=Allo .aſsai	!	!LO:TX:a:t=Allo&colon; Assaj	!	!LO:TX:a:i:t=Allo&colon; Aſsaj	!	!LO:TX:a:i:t=Allegro Aſsaj	!	!LO:TX:a:i:t=Allegro Aſsaj	!	!LO:TX:a:t=Allo&colon; Aſsaj	!
4D/	.	.	4D\	.	4A/	.	8r	.	8r	.	1.r	.	4d/	.
.	.	.	.	.	.	.	8d|/L	.	8d|/L	.	.	.	.	.
8r	.	.	8r	.	8r	.	8f#|/J	.	8f#|/J	.	.	.	8r	.
=2	=2	=2	=2	=2	=2	=2	=2	=2	=2	=2	=2	=2	=2	=2
!	!	!	!	!	!	!	!LO:TX:t=P:problem=mixed beam	!	!LO:TX:t=P:problem=mixed beam	!	!	!	!LO:TX:a:t=4.	!
8r	.	.	8r	.	8r	.	8a/L	.	8a/L	.	.	.	1.r	.
!	!	!	!	!	!LO:TX:t=P:problem=mixed beam	!	!	!	!	!	!	!	!	!
8F#\L	6	.	8F#\L	.	8a\L	.	8d/	.	8d/	.	.	.	.	.
8D\J	.	.	8D\J	.	8A/J	.	8ff#\J	.	8ff#\J	.	.	.	.	.
=3	=3	=3	=3	=3	=3	=3	=3	=3	=3	=3	=3	=3	=3	=3
8C#/L	6	.	8C#/L	.	8e\L	.	16ee\LL	.	16ee\LL	.	.	.	.	.
.	.	.	.	.	.	.	16a\JJ	.	16a\JJ	.	.	.	.	.
.	.	.	.	.	.	.	8qqa/	.	8qqa/	.	.	.	.	.
8BB/	6	.	8BB/	.	8d\	.	4g/	.	4g/	.	.	.	.	.
8AA/J	7	.	8AA/J	.	8c#\J	.	.	.	.	.	.	.	.	.
=4	=4	=4	=4	=4	=4	=4	=4	=4	=4	=4	=4	=4	=4	=4
!	!	!	!	!	!	!	!LO:TX:t=P:problem=mixed beam	!	!LO:TX:t=P:problem=mixed beam	!	!	!	!	!
8D\L	.	.	8D\L	.	8r	.	8f#/L	.	8f#/L	.	.	.	.	.
!	!	!	!	!	!LO:TX:t=P:problem=mixed beam	!	!	!	!	!	!	!	!	!
8F#\	6	.	8F#\	.	8a\L	.	8d/	.	8d/	.	.	.	.	.
8D\J	.	.	8D\J	.	8A/J	.	8ff#\J	.	8ff#\J	.	.	.	.	.
=5	=5	=5	=5	=5	=5	=5	=5	=5	=5	=5	=5	=5	=5	=5
8C#/L	6	.	8C#/L	.	8e\L	.	24ee\LL	.	24ee\LL	.	1.r	.	.	.
.	.	.	.	.	.	.	24cc#\	.	24cc#\	.	.	.	.	.
.	.	.	.	.	.	.	24a\JJ	.	24a\JJ	.	.	.	.	.
.	.	.	.	.	.	.	8qqa/	.	8qqa/	.	.	.	.	.
8BB/	6	.	8BB/	.	8d\	.	4g/	.	4g/	.	.	.	.	.
8AA/J	7	.	8AA/J	.	8c#\J	.	.	.	.	.	.	.	.	.
=6	=6	=6	=6	=6	=6	=6	=6	=6	=6	=6	=6	=6	=6	=6
!LO:TX:t=P:problem=mixed beam	!	!	!LO:TX:t=P:problem=mixed beam	!	!	!	!	!	!	!	!	!	!	!
8D\L	.	.	8D\L	.	4A/	.	4f#/	.	4f#/	.	.	.	8r	.
!	!	!	!	!	!	!	!	!	!	!	!	!	!LO:TX:a:i:t=Solo	!
8DD/J	.	.	8DD/J	.	.	.	.	.	.	.	.	.	8dd\L	.
8r	.	.	8r	.	8r	.	8r	.	8r	.	.	.	8ff#\J	.
=7	=7	=7	=7	=7	=7	=7	=7	=7	=7	=7	=7	=7	=7	=7
!LO:TX:a:t=7.	!	!	!LO:TX:a:t=7.	!	!LO:TX:a:t=8.	!	!	!LO:DY:b:t=po&colon;	!	!	!	!	!	!
1.r	.	.	1.r	.	1.r	.	8r	p	8r	.	.	.	8aa\L	.
!	!	!	!	!	!	!	!	!	!	!LO:DY:b:t=pia&colon;	!	!	!	!
.	.	.	.	.	.	.	8f#/L	.	8f#/L	p	.	.	8dd\	.
.	.	.	.	.	.	.	8d/J	.	8d/J	.	.	.	8fff#\J	.
=8	=8	=8	=8	=8	=8	=8	=8	=8	=8	=8	=8	=8	=8	=8
.	.	.	.	.	.	.	8c#/L	.	8c#/L	.	.	.	16eee\LL	.
.	.	.	.	.	.	.	.	.	.	.	.	.	16aa\JJ	.
.	.	.	.	.	.	.	.	.	.	.	.	.	8qqaa/	.
.	.	.	.	.	.	.	8B/	.	8B/	.	.	.	4gg\	.
.	.	.	.	.	.	.	8A/J	.	8A/J	.	.	.	.	.
=9	=9	=9	=9	=9	=9	=9	=9	=9	=9	=9	=9	=9	=9	=9
.	.	.	.	.	.	.	8d/L	.	8d/L	.	1.r	.	8ff#\L	.
.	.	.	.	.	.	.	8f#/	.	8f#/	.	.	.	8dd\	.
.	.	.	.	.	.	.	8d/J	.	8d/J	.	.	.	8fff#\J	.
=10	=10	=10	=10	=10	=10	=10	=10	=10	=10	=10	=10	=10	=10	=10
!	!	!	!	!	!	!	!	!	!	!	!	!	!LO:TUP:a	!
.	.	.	.	.	.	.	8c#/L	.	8c#/L	.	.	.	24eee\LL	.
.	.	.	.	.	.	.	.	.	.	.	.	.	24ccc#\	.
.	.	.	.	.	.	.	.	.	.	.	.	.	24aa\JJ	.
.	.	.	.	.	.	.	.	.	.	.	.	.	8qqaa/	.
.	.	.	.	.	.	.	8B/	.	8B/	.	.	.	4gg\	.
.	.	.	.	.	.	.	8A/J	.	8A/J	.	.	.	.	.
=11	=11	=11	=11	=11	=11	=11	=11	=11	=11	=11	=11	=11	=11	=11
2.r	.	.	2.r	.	1.r	.	8d/L	.	8c#/L	.	.	.	16ff#\LL	.
.	.	.	.	.	.	.	.	.	.	.	.	.	16dd\JJ	.
.	.	.	.	.	.	.	.	.	.	.	.	.	8qqdd/	.
.	.	.	.	.	.	.	8c#/	.	8B/	.	.	.	4gg\	.
.	.	.	.	.	.	.	8A/J	.	8A/J	.	.	.	.	.
!	!	!	!	!	!	!	!LO:LB:g=original	!	!LO:LB:g=original	!	!	!	!	!
=12	=12	=12	=12	=12	=12	=12	=12	=12	=12	=12	=12	=12	=12	=12
!	!	!	!	!	!	!	!	!	!	!	!	!	!LO:TUP:a	!
.	.	.	.	.	.	.	8d/L	.	8d/L	.	.	.	24ff#\LL	.
.	.	.	.	.	.	.	.	.	.	.	.	.	24gg\	.
.	.	.	.	.	.	.	.	.	.	.	.	.	24aa\JJ	.
.	.	.	.	.	.	.	.	.	.	.	.	.	8qqaa/	.
.	.	.	.	.	.	.	8c#/	.	8c#/	.	.	.	4gg\	.
.	.	.	.	.	.	.	8A/J	.	8A/J	.	.	.	.	.
!	!	!	!	!	!	!	!	!	!	!	!	!	!LO:LB:g=original	!
=13	=13	=13	=13	=13	=13	=13	=13	=13	=13	=13	=13	=13	=13	=13
!	!	!	!	!	!	!	!	!	!	!	!	!	!LO:TUP:a	!
4.r	.	.	4.r	.	.	.	8d/L	.	8d/L	.	1.r	.	24ff#\LL	.
.	.	.	.	.	.	.	.	.	.	.	.	.	24ee\	.
.	.	.	.	.	.	.	.	.	.	.	.	.	24dd\JJ	.
*	*	*	*	*	*	*	*	*	*	*	*	*	*Xtuplet	*
.	.	.	.	.	.	.	8f#/	.	8f#/	.	.	.	24aa\LL	.
.	.	.	.	.	.	.	.	.	.	.	.	.	24gg\	.
.	.	.	.	.	.	.	.	.	.	.	.	.	24ff#\JJ	.
.	.	.	.	.	.	.	8d/J	.	8d/J	.	.	.	16ddd\LL	.
.	.	.	.	.	.	.	.	.	.	.	.	.	16ff#\JJ	.
=14	=14	=14	=14	=14	=14	=14	=14	=14	=14	=14	=14	=14	=14	=14
.	.	.	.	.	.	.	.	.	.	.	.	.	8qqgg/	.
8r	.	.	8r	.	.	.	8a/L	.	8a/L	.	.	.	8ff#\L	.
8AA/L	.	.	8AA/L	.	.	.	8A/J	.	8A/J	.	.	.	8ee\J	.
8C#/J	.	.	8C#/J	.	.	.	8r	.	8r	.	.	.	8r	.
=15	=15	=15	=15	=15	=15	=15	=15	=15	=15	=15	=15	=15	=15	=15
!	!	!	!	!	!	!	!	!	!	!LO:DY:b:t=for&colon;	!	!	!LO:TX:a:t=I	!
8E\L	#	.	8E\L	.	8b\L	.	4.ee\	.	4.gg#X\	f	.	.	4.r	.
8E\	.	.	8E\	.	8b\	.	.	.	.	.	.	.	.	.
8E\J	.	.	8E\J	.	8b\J	.	.	.	.	.	.	.	.	.
=16	=16	=16	=16	=16	=16	=16	=16	=16	=16	=16	=16	=16	=16	=16
!	!	!LO:DY:b:t=piano	!	!LO:DY:b:t=piano	!	!LO:DY:b:t=pia&colon;	!	!LO:DY:b:t=po&colon;	!	!LO:DY:b:t=po&colon;	!	!	!	!
8C#/L	6 -5	p	8C#/L	p	8A/L	p	4.e/	p	4.gn/	p	.	.	8r	.
8C#/	.	.	8C#/	.	8A/	.	.	.	.	.	.	.	8a/L	.
8C#/J	.	.	8C#/J	.	8A/J	.	.	.	.	.	.	.	8a/J	.
!	!	!	!LO:LB:g=original	!	!	!	!	!	!	!	!	!	!	!
=17	=17	=17	=17	=17	=17	=17	=17	=17	=17	=17	=17	=17	=17	=17
!	!	!LO:DY:b:t=forte	!	!LO:DY:b:t=for&colon;	!	!LO:DY:b:t=for&colon;	!	!LO:DY:b:t=for	!	!LO:DY:b:t=for&colon;	!	!	!	!
8D/L	.	f	8D/L	f	8a\L	f	4.dd\	f	4.ff#\	f	1.r	.	4a/	.
8D/	.	.	8D/	.	8a\	.	.	.	.	.	.	.	.	.
8D/J	.	.	8D/J	.	8a\J	.	.	.	.	.	.	.	8r	.
!LO:LB:g=original	!	!	!	!	!	!	!	!	!	!	!	!	!	!
=18	=18	=18	=18	=18	=18	=18	=18	=18	=18	=18	=18	=18	=18	=18
!	!	!LO:DY:b:t=piano	!	!LO:DY:b:t=piano	!	!LO:DY:b:t=pia&colon;	!	!LO:DY:b:t=pia&colon;	!	!LO:DY:b:t=po&colon;	!	!	!LO:TX:a:t=I	!
8GG#X/L	-7r 5	p	8GG#X/L	p	8B/L	p	4.d/	p	4.fn/	p	.	.	4.r	.
8GG#/	.	.	8GG#/	.	8B/	.	.	.	.	.	.	.	.	.
8GG#/J	.	.	8GG#/J	.	8B/J	.	.	.	.	.	.	.	.	.
=19	=19	=19	=19	=19	=19	=19	=19	=19	=19	=19	=19	=19	=19	=19
*	*	*	*	*	*	*	*Xtuplet	*	*	*	*	*	*	*
!	!	!	!	!	!	!LO:DY:b:t=forte	!LO:TUP:a:problem=klamra łukowa	!	!LO:TUP:a:problem=klamra łukowa	!	!	!	!	!
8AA/L	5 3	.	8AA/L	.	8A/L	f	24cc#\LL	.	24ee\LL	.	.	.	8r	.
.	.	.	.	.	.	.	24dd\	.	24ff#X\	.	.	.	.	.
.	.	.	.	.	.	.	24ee\JJ	.	24gg\JJ	.	.	.	.	.
!	!	!	!	!	!	!	!LO:TUP:a:problem=klamra łukowa	!	!	!	!	!	!	!
8AA/	6\ 4	.	8AA/	.	8A/	.	24dd\LL	.	24ff#\LL	.	.	.	8a/L	.
.	.	.	.	.	.	.	24ee\	.	24gg\	.	.	.	.	.
.	.	.	.	.	.	.	24ff#\JJ	.	24aa\JJ	.	.	.	.	.
!	!	!	!	!	!	!	!LO:TUP:a:problem=klamra łukowa	!	!	!	!	!	!	!
8AA/J	7 3	.	8AA/J	.	8A/J	.	24ee\LL	.	24cc#\LL	.	.	.	8a/J	.
.	.	.	.	.	.	.	24ff#\	.	24dd\	.	.	.	.	.
.	.	.	.	.	.	.	24gg\JJ	.	24ee\JJ	.	.	.	.	.
=20	=20	=20	=20	=20	=20	=20	=20	=20	=20	=20	=20	=20	=20	=20
*	*	*	*	*	*	*	*	*	*Xtuplet	*	*	*	*	*
!	!	!	!	!	!	!	!LO:TUP:a:problem=klamra łukowa	!	!	!	!	!	!	!
8AA/L	6 4	.	8AA/L	.	8A/L	.	24ff#\LL	.	24dd\LL	.	.	.	4a/	.
.	.	.	.	.	.	.	24gg\	.	24ee\	.	.	.	.	.
.	.	.	.	.	.	.	24aa\JJ	.	24ff#\JJ	.	.	.	.	.
!	!	!	!	!	!	!	!LO:TUP:a:problem=klamra łukowa	!	!	!	!	!	!	!
8AA/	5 3	.	8AA/	.	8A/	.	24cc#\LL	.	24e/LL	.	.	.	.	.
.	.	.	.	.	.	.	24dd\	.	24f#/	.	.	.	.	.
.	.	.	.	.	.	.	24ee\JJ	.	24g/JJ	.	.	.	.	.
!	!	!	!	!	!	!	!LO:TUP:a:problem=klamra łukowa	!	!	!	!	!	!	!
8AA/J	6 4	.	8AA/J	.	8A/J	.	24dd\LL	.	24f#/LL	.	.	.	8r	.
.	.	.	.	.	.	.	24ee\	.	24g/	.	.	.	.	.
.	.	.	.	.	.	.	24ff#\JJ	.	24a/JJ	.	.	.	.	.
!	!	!	!	!	!LO:LB:g=original	!	!	!	!	!	!	!	!	!
=21	=21	=21	=21	=21	=21	=21	=21	=21	=21	=21	=21	=21	=21	=21
!LO:TX:t=P:problem=mixed beam	!	!	!LO:TX:t=P:problem=mixed beam	!	!	!	!	!	!	!	!	!	!	!
8G\L	6	.	8G\L	.	8b\L	.	24ee\LL	.	24b\LL	.	1.r	.	8ee\	.
.	.	.	.	.	.	.	24b\	.	24gg\	.	.	.	.	.
.	.	.	.	.	.	.	24g\JJ	.	24ee\JJ	.	.	.	.	.
.	.	.	.	.	.	.	8qqf#/	.	8qqdd/	.	.	.	.	.
8A\	.	.	8A\	.	8a\	.	4eT/	.	4cc#t\	.	.	.	4eeT\	.
8AA/J	7	.	8AA/J	.	8a\J	.	.	.	.	.	.	.	.	.
=22	=22	=22	=22	=22	=22	=22	=22	=22	=22	=22	=22	=22	=22	=22
!	!	!	!	!	!	!	!	!	!	!	!	!	!LO:TX:a:i:t=Solo	!
4D/	.	.	4D/	.	4a\	.	4f#/	.	4dd\	.	.	.	24dd\LL	.
.	.	.	.	.	.	.	.	.	.	.	.	.	24b\	.
.	.	.	.	.	.	.	.	.	.	.	.	.	24dd\JJ	.
.	.	.	.	.	.	.	.	.	.	.	.	.	24ff#\LL	.
.	.	.	.	.	.	.	.	.	.	.	.	.	24dd\	.
.	.	.	.	.	.	.	.	.	.	.	.	.	24ff#\JJ	.
8r	.	.	8r	.	8r	.	8r	.	8r	.	.	.	24aa\LL	.
.	.	.	.	.	.	.	.	.	.	.	.	.	24ff#\	.
.	.	.	.	.	.	.	.	.	.	.	.	.	24aa\JJ	.
!	!	!	!	!	!	!	!LO:LB:g=original	!	!	!	!	!	!LO:LB:g=original	!
=23	=23	=23	=23	=23	=23	=23	=23	=23	=23	=23	=23	=23	=23	=23
!LO:TX:a:t=2.	!	!	!	!	!LO:TX:a:t=2.	!	!	!	!	!LO:DY:b:t=po&colon;	!	!	!	!
2.r	.	.	2.r	.	2.r	.	24d/LL	.	24f#/LL	p	.	.	[4.ddd\	.
!	!	!	!	!	!	!	!	!LO:DY:b:t=piano	!	!	!	!	!	!
.	.	.	.	.	.	.	24f#/	p	24d/	.	.	.	.	.
.	.	.	.	.	.	.	24d/JJ	.	24f#/JJ	.	.	.	.	.
!	!	!	!	!	!	!	!	!	!LO:LB:g=original	!	!	!	!	!
.	.	.	.	.	.	.	24e/LL	.	24g/LL	.	.	.	.	.
.	.	.	.	.	.	.	24g/	.	24e/	.	.	.	.	.
.	.	.	.	.	.	.	24e/JJ	.	24g/JJ	.	.	.	.	.
.	.	.	.	.	.	.	24f#/LL	.	24a/LL	.	.	.	.	.
.	.	.	.	.	.	.	24a/	.	24f#/	.	.	.	.	.
.	.	.	.	.	.	.	24f#/JJ	.	24a/JJ	.	.	.	.	.
=24	=24	=24	=24	=24	=24	=24	=24	=24	=24	=24	=24	=24	=24	=24
.	.	.	.	.	.	.	8g/L	.	8b\L	.	.	.	8ddd\L]	.
.	.	.	.	.	.	.	8a/	.	8dd\	.	.	.	8ff#\	.
.	.	.	.	.	.	.	8A/J	.	8cc#t\J	.	.	.	8eeT\J	.
=25	=25	=25	=25	=25	=25	=25	=25	=25	=25	=25	=25	=25	=25	=25
!	!	!	!	!	!	!	!	!LO:DY:b:t=for	!LO:TUP:b:problem=klamra łukowa	!LO:DY:a:t=for	!	!	!LO:TX:t=P:problem=mixed beam	!
4D/	.	.	4D/	.	4A/	.	8r	f	24d/LL	f	1.r	.	8dd\L	.
.	.	.	.	.	.	.	.	.	24A/	.	.	.	.	.
.	.	.	.	.	.	.	.	.	24d/JJ	.	.	.	.	.
!	!	!	!	!	!	!	!	!	!LO:TUP:b:problem=klamra łukowa	!	!	!	!	!
.	.	.	.	.	.	.	24d/LL	.	24f#/LL	.	.	.	8d/	.
.	.	.	.	.	.	.	24A/	.	24d/	.	.	.	.	.
.	.	.	.	.	.	.	24d/JJ	.	24f#/JJ	.	.	.	.	.
!	!	!	!	!	!	!	!	!	!LO:TUP:b:problem=klamra łukowa	!	!	!	!	!
8r	.	.	8r	.	8r	.	24f#/LL	.	24a/LL	.	.	.	8d/J	.
.	.	.	.	.	.	.	24d/	.	24f#/	.	.	.	.	.
.	.	.	.	.	.	.	24f#/JJ	.	24a/JJ	.	.	.	.	.
=26	=26	=26	=26	=26	=26	=26	=26	=26	=26	=26	=26	=26	=26	=26
4F#\	6	.	4F#\	.	4d\	.	24a/LL	.	24dd\LL	.	.	.	4d/	.
.	.	.	.	.	.	.	24f#/	.	24a\	.	.	.	.	.
.	.	.	.	.	.	.	24a/JJ	.	24dd\JJ	.	.	.	.	.
.	.	.	.	.	.	.	24dd\LL	.	24ff#\LL	.	.	.	.	.
.	.	.	.	.	.	.	24a\	.	24dd\	.	.	.	.	.
.	.	.	.	.	.	.	24dd\JJ	.	24ff#\JJ	.	.	.	.	.
8D\	.	.	8D\	.	8d\	.	24ff#\LL	.	24aa\LL	.	.	.	8r	.
.	.	.	.	.	.	.	24dd\	.	24ff#\	.	.	.	.	.
.	.	.	.	.	.	.	24ff#\JJ	.	24aa\JJ	.	.	.	.	.
=27	=27	=27	=27	=27	=27	=27	=27	=27	=27	=27	=27	=27	=27	=27
.	.	.	.	.	.	.	.	.	.	.	.	.	16qqee/LL	.
.	.	.	.	.	.	.	.	.	.	.	.	.	16qqff#/JJ	.
*	*	*	*	*	*	*	*	*	*tuplet	*	*	*	*	*
!LO:TX:t=P:problem=mixed beam	!	!	!LO:TX:t=P:problem=mixed beam	!	!LO:TX:t=P:problem=mixed beam	!	!	!	!	!	!	!	!	!
8G\L	6	.	8G\L	.	8b\L	.	24gg\LL	.	24bb\LL	.	.	.	8gg\L	.
.	.	.	.	.	.	.	24ff#\	.	24aa\	.	.	.	.	.
.	.	.	.	.	.	.	24ee\JJ	.	24gg\JJ	.	.	.	.	.
8A\	6 4	.	8A\	.	8a\	.	8dd\L	.	8ff#\L	.	.	.	8ff#\	.
8AA/J	7 3	.	8AA/J	.	8A/J	.	8cc#t\J	.	8eeT\J	.	.	.	8eeT\J	.
=28	=28	=28	=28	=28	=28	=28	=28	=28	=28	=28	=28	=28	=28	=28
*	*	*	*	*	*	*	*	*	*	*	*	*	*tuplet	*
!	!	!	!	!	!	!	!	!	!	!	!	!	!LO:TUP:a	!
8D\L	.	.	8D\L	.	8f#\L	.	24dd\LL	.	24dd\LL	.	.	.	24dd\LL	.
.	.	.	.	.	.	.	24a\	.	24a\	.	.	.	24a\	.
.	.	.	.	.	.	.	24f#\JJ	.	24f#\JJ	.	.	.	24f#\JJ	.
8F#\	6	.	8F#\	.	8a\	.	8d/	.	8d/	.	.	.	8d/	.
8E\J	6	.	8E\J	.	8g\J	.	8r	.	8r	.	.	.	8r	.
=29	=29	=29	=29	=29	=29	=29	=29	=29	=29	=29	=29	=29	=29	=29
!	!	!LO:DY:b:t=piano	!	!LO:DY:b:t=piano	!	!LO:DY:b:t=pia	!	!	!	!	!	!	!LO:TX:a:t=2.	!
4D/	.	p	4D/	p	4f#\	p	8r	.	8r	.	8r	.	2.r	.
.	.	.	.	.	.	.	8d/L	.	8d/L	.	8D/	A-	.	.
!	!	!	!	!	!	!	!	!LO:DY:b:t=piano	!	!LO:DY:b:t=po&colon;	!	!	!	!
8r	.	.	8r	.	8r	.	8f#/J	p	8f#/J	p	8F#\	-ve	.	.
!	!	!	!LO:LB:g=original	!	!	!	!	!	!	!	!	!	!	!
=30	=30	=30	=30	=30	=30	=30	=30	=30	=30	=30	=30	=30	=30	=30
8r	.	.	8r	.	8r	.	8a/L	.	8a/L	.	(8A\L	Ma-	.	.
8F#\L	6	.	8F#\L	.	8a\L	.	8d/J	.	8d/J	.	8D\J)	.	.	.
8D\J	.	.	8D\J	.	8f#\J	.	8r	.	8r	.	8d\	-ris	.	.
=31	=31	=31	=31	=31	=31	=31	=31	=31	=31	=31	=31	=31	=31	=31
!	!	!	!	!	!	!	!	!	!LO:TUP:a:problem=klamra łukowa	!	!	!	!	!
8AA/L	.	.	8AA/L	.	8e\L	.	8cc#\L	.	24cc#\LL	.	24c#\LL	ſtel-	8r	.
.	.	.	.	.	.	.	.	.	24b\	.	24B\	.	.	.
.	.	.	.	.	.	.	.	.	24a\JJ	.	24A\JJ	.	.	.
.	.	.	.	.	.	.	.	.	.	.	8qqA/	.	.	.
!	!	!	!	!	!	!	!	!	!	!	!	!	!	!LO:DY:b:t=piano
8BB/	6	.	8BB/	.	8d\	.	8dd\	.	4gg\	.	4G\	.	8gg\L	p
8C#/J	7 5	.	8C#/J	.	8c#\J	.	8ee\J	.	.	.	.	.	8gg\J	.
!	!	!	!	!	!	!	!LO:LB:g=original	!	!LO:LB:g=original	!	!	!	!	!
=32	=32	=32	=32	=32	=32	=32	=32	=32	=32	=32	=32	=32	=32	=32
!	!	!	!	!	!LO:TX:t=P:problem=mixed beam	!	!	!	!	!	!	!	!	!
8D\L	.	.	8D\L	.	8A/L	.	4dd\	.	8ee\L	.	8F#\	-la	4ff#\	.
8F#\	6	.	8F#\	.	8a\	.	.	.	8a\	.	8A\	Ma-	.	.
8D\J	.	.	8D\J	.	8f#\J	.	8a/	.	8dd\J	.	8d\	-ris	8r	.
!LO:LB:g=original	!	!	!	!	!	!	!	!	!	!	!	!	!	!
=33	=33	=33	=33	=33	=33	=33	=33	=33	=33	=33	=33	=33	=33	=33
8AA/L	.	.	8AA/L	.	8e\L	.	8c#/L	.	24cc#\LL	.	24c#\LL	ſtel-	8a/L	.
.	.	.	.	.	.	.	.	.	24b\	.	24B\	.	.	.
.	.	.	.	.	.	.	.	.	24a\JJ	.	24A\JJ	.	.	.
.	.	.	.	.	.	.	.	.	.	.	8qqA/	.	.	.
8BB/	6	.	8BB/	.	8d\	.	8d/	.	4gg\	.	4G\	.	8a/	.
8C#/J	6 5	.	8C#/J	.	8c#\J	.	8e/J	.	.	.	.	.	8a/J	.
=34	=34	=34	=34	=34	=34	=34	=34	=34	=34	=34	=34	=34	=34	=34
.	.	.	.	.	.	.	.	.	.	.	8qqG/	.	.	.
*	*	*	*	*	*	*	*	*	*	*	*	*	*Xtuplet	*
!	!	!	!	!	!	!	!	!	!	!	!	!	!	!LO:DY:b:t=forte
8D\L	.	.	8D\L	.	8A\L	.	8d/L	.	8ff# 8a 8d/	.	4F#\	-la	24a/LL	f
.	.	.	.	.	.	.	.	.	.	.	.	.	24dd/	.
.	.	.	.	.	.	.	.	.	.	.	.	.	24ff#/JJ	.
8F#\	6	.	8F#\	.	8f#\	.	8f#/	.	8f#|/L	.	.	.	24aa\LL	.
.	.	.	.	.	.	.	.	.	.	.	.	.	24ff#\	.
.	.	.	.	.	.	.	.	.	.	.	.	.	24dd\JJ	.
8D\J	.	.	8D\J	.	8d\J	.	8d/J	.	8d|/J	.	8r	.	24a/LL	.
.	.	.	.	.	.	.	.	.	.	.	.	.	24dd/	.
.	.	.	.	.	.	.	.	.	.	.	.	.	24ff#/JJ	.
=35	=35	=35	=35	=35	=35	=35	=35	=35	=35	=35	=35	=35	=35	=35
*	*	*	*	*	*	*	*	*	*Xtuplet	*	*	*	*	*
!	!	!	!	!	!	!	!	!	!	!	!	!	!	!LO:DY:b:t=po&colon;
8G\L	.	.	8G\L	.	8d\L	.	24g\LL	.	24b\LL	.	8GG/	A-	4gg\	p
.	.	.	.	.	.	.	24b\	.	24dd\	.	.	.	.	.
.	.	.	.	.	.	.	24dd\JJ	.	24gg\JJ	.	.	.	.	.
8G\	.	.	8G\	.	8d\	.	24gg\LL	.	24bb\LL	.	[4B\	.	.	.
.	.	.	.	.	.	.	24dd\	.	24gg\	.	.	.	.	.
.	.	.	.	.	.	.	24b\JJ	.	24dd\JJ	.	.	.	.	.
8G\J	.	.	8G\J	.	8d\J	.	24g/LL	.	24b\LL	.	.	.	8r	.
.	.	.	.	.	.	.	24b/	.	24dd\	.	.	.	.	.
.	.	.	.	.	.	.	24dd/JJ	.	24gg\JJ	.	.	.	.	.
!	!	!	!	!	!	!	!	!	!	!	!LO:LB:g=original	!	!LO:LB:g=original	!
=36	=36	=36	=36	=36	=36	=36	=36	=36	=36	=36	=36	=36	=36	=36
8GG/L	.	.	8GG/L	.	8d\L	.	4.b/	.	4.gg\	.	16B\LL]	.	8r	.
.	.	.	.	.	.	.	.	.	.	.	16G\	.	.	.
8GG/	.	.	8GG/	.	8d\	.	.	.	.	.	16d\	.	8d/L	.
.	.	.	.	.	.	.	.	.	.	.	16B\	.	.	.
8GG/J	.	.	8GG/J	.	8d\J	.	.	.	.	.	16AT\	.	8d/J	.
.	.	.	.	.	.	.	.	.	.	.	16G#X\JJ	.	.	.
!	!	!	!	!	!LO:LB:g=original	!	!	!	!	!	!	!	!	!
=37	=37	=37	=37	=37	=37	=37	=37	=37	=37	=37	=37	=37	=37	=37
.	.	.	.	.	.	.	.	.	.	.	8qqG/	.	.	.
8d\L	.	.	8d\L	.	8d\L	.	24f#/LL	.	24a\LL	.	[4.A\	.	4d/	.
.	.	.	.	.	.	.	24a/	.	24cc#\	.	.	.	.	.
.	.	.	.	.	.	.	24dd/JJ	.	24ff#\JJ	.	.	.	.	.
8d\	.	.	8d\	.	8d\	.	24ff#\LL	.	24aa\LL	.	.	.	.	.
.	.	.	.	.	.	.	24dd\	.	24ff#\	.	.	.	.	.
.	.	.	.	.	.	.	24a\JJ	.	24cc#\JJ	.	.	.	.	.
8d\J	.	.	8d\J	.	8d\J	.	24f#/LL	.	24a\LL	.	.	.	8r	.
.	.	.	.	.	.	.	24a/	.	24cc#\	.	.	.	.	.
.	.	.	.	.	.	.	24cc#/JJ	.	24ff#\JJ	.	.	.	.	.
=38	=38	=38	=38	=38	=38	=38	=38	=38	=38	=38	=38	=38	=38	=38
8D\L	.	.	8D\L	.	8d\L	.	4.dd\	.	4.ff#\	.	24A\LL]	.	8r	.
.	.	.	.	.	.	.	.	.	.	.	24B\	.	.	.
.	.	.	.	.	.	.	.	.	.	.	24c#\JJ	.	.	.
8D\	.	.	8D\	.	8a\	.	.	.	.	.	24d\LL	.	8d/L	.
.	.	.	.	.	.	.	.	.	.	.	24c#\	.	.	.
.	.	.	.	.	.	.	.	.	.	.	24B\JJ	.	.	.
8D\J	.	.	8D\J	.	8a\J	.	.	.	.	.	24A\LL	.	8d/J	.
.	.	.	.	.	.	.	.	.	.	.	24Gn\	.	.	.
.	.	.	.	.	.	.	.	.	.	.	24F#\JJ	.	.	.
=39	=39	=39	=39	=39	=39	=39	=39	=39	=39	=39	=39	=39	=39	=39
.	.	.	.	.	.	.	.	.	.	.	8qqF#/	.	.	.
8A\L	7	.	8A\L	.	8c#/L	.	24e/LL	.	24g\LL	.	[4.G\	.	4a/	.
.	.	.	.	.	.	.	24g/	.	24cc#\	.	.	.	.	.
.	.	.	.	.	.	.	24cc#/JJ	.	24ee\JJ	.	.	.	.	.
8A\	.	.	8A\	.	8c#/	.	24ee\LL	.	24gg\LL	.	.	.	.	.
.	.	.	.	.	.	.	24cc#\	.	24ee\	.	.	.	.	.
.	.	.	.	.	.	.	24g\JJ	.	24cc#\JJ	.	.	.	.	.
8A\J	.	.	8A\J	.	8c#/J	.	24e/LL	.	24g\LL	.	.	.	8r	.
.	.	.	.	.	.	.	24g/	.	24cc#\	.	.	.	.	.
.	.	.	.	.	.	.	24cc#/JJ	.	24ee\JJ	.	.	.	.	.
=40	=40	=40	=40	=40	=40	=40	=40	=40	=40	=40	=40	=40	=40	=40
8AA/L	7	.	8AA/L	.	8a\L	.	4.cc#\	.	4.ee\	.	16G\LL]	.	8r	.
.	.	.	.	.	.	.	.	.	.	.	16E\JJ	.	.	.
!	!	!	!	!	!	!	!	!	!	!	!LO:TX:t=P:problem=mixed beam	!	!	!
8AA/	.	.	8AA/	.	8a\	.	.	.	.	.	16AA/LL	.	8a/L	.
.	.	.	.	.	.	.	.	.	.	.	16G\	.	.	.
8AA/J	.	.	8AA/J	.	8a\J	.	.	.	.	.	16F#\	.	8a/J	.
.	.	.	.	.	.	.	.	.	.	.	16E\JJ	.	.	.
!	!	!	!LO:LB:g=original	!	!	!	!	!	!	!	!	!	!	!
=41	=41	=41	=41	=41	=41	=41	=41	=41	=41	=41	=41	=41	=41	=41
8D/L	.	.	8D/L	.	8a\L	.	8dd\L	.	8ff#\L	.	24F#\LL	.	4a/	.
.	.	.	.	.	.	.	.	.	.	.	24E\	.	.	.
.	.	.	.	.	.	.	.	.	.	.	24D\JJ	.	.	.
8C#/	6 5	.	8C#/	.	8a\	.	8ee\	.	8gg\	.	24G\LL	.	.	.
.	.	.	.	.	.	.	.	.	.	.	24F#\	.	.	.
.	.	.	.	.	.	.	.	.	.	.	24E\JJ	.	.	.
8D/J	.	.	8D/J	.	8a\J	.	8dd\J	.	8ff#\J	.	24A\LL	.	8r	.
.	.	.	.	.	.	.	.	.	.	.	24G\	.	.	.
.	.	.	.	.	.	.	.	.	.	.	24F#\JJ	.	.	.
!	!	!	!	!	!	!	!	!	!	!	!LO:LB:g=original	!	!	!
=42	=42	=42	=42	=42	=42	=42	=42	=42	=42	=42	=42	=42	=42	=42
!	!	!	!	!	!	!	!	!	!	!	!	!	!LO:TX:a:t=12.	!
.	.	.	.	.	.	.	.	.	.	.	8qqF#/	.	.	.
!	!	!	!	!	!	!	!LO:TX:t=P:problem=mixed beam	!	!LO:TX:t=P:problem=mixed beam	!	!	!	!	!
8AA/L	.	.	8AA/L	.	8a\L	.	8cc#\L	.	8ee\L	.	4E\	-ve	1.r	.
8C#/	.	.	8C#/	.	8c#\	.	8c#/	.	8c#/	.	.	.	.	.
8E/J	.	.	8E/J	.	8e\J	.	8e/J	.	8e/J	.	8r	.	.	.
!	!	!	!	!	!	!	!LO:LB:g=original	!	!LO:LB:g=original	!	!	!	!	!
=43	=43	=43	=43	=43	=43	=43	=43	=43	=43	=43	=43	=43	=43	=43
!	!	!	!	!	!LO:TX:t=P:problem=mixed beam	!	!	!	!LO:TX:t=P:problem=mixed beam	!	!	!	!	!
8AA/	.	.	8AA/	.	8A/L	.	8A/L	.	8A/L	.	4.A\	Ma-	.	.
[4A\	.	.	8G\	.	8e\	.	8a/	.	8cc#\	.	.	.	.	.
.	.	.	8r	.	8e\J	.	8a/J	.	8cc#\J	.	.	.	.	.
=44	=44	=44	=44	=44	=44	=44	=44	=44	=44	=44	=44	=44	=44	=44
8A\L]	2	.	8A\L	.	8f#\L	.	8b/L	.	8dd\L	.	4.B\	-ris	.	.
16G#X\L	.	.	16G#X\L	.	8e\	.	8b/	.	8ee\	.	.	.	.	.
16F#\J	.	.	16F#\J	.	.	.	.	.	.	.	.	.	.	.
8G#X\J	6	.	8G#X\J	.	8e\J	.	8b/J	.	8ee\J	.	.	.	.	.
=45	=45	=45	=45	=45	=45	=45	=45	=45	=45	=45	=45	=45	=45	=45
!	!	!	!	!	!	!	!LO:TX:t=P:problem=mixed beam	!	!LO:TX:t=P:problem=mixed beam	!	!	!	!	!
8A\L	.	.	8A\L	.	8a\L	.	8cc#\L	.	8ee\L	.	16c#\LL	ſtel-	.	.
.	.	.	.	.	.	.	.	.	.	.	16B\JJ	.	.	.
8C#\	.	.	8C#\	.	8c#\	.	8c#/	.	8c#/	.	8A\	-la	.	.
8E\J	.	.	8E\J	.	8e\J	.	8e/J	.	8e/J	.	8r	.	.	.
=46	=46	=46	=46	=46	=46	=46	=46	=46	=46	=46	=46	=46	=46	=46
!	!	!	!	!	!	!	!	!	!LO:TX:t=P:problem=mixed beam	!	!	!	!	!
8AA/	.	.	8AA/	.	8A\L	.	8A/L	.	8A/L	.	4.A\	De-	1.r	.
[4A\	.	.	4A\	.	8e\	.	8a/	.	8cc#\	.	.	.	.	.
.	.	.	.	.	8e\J	.	8a/J	.	8cc#\J	.	.	.	.	.
!LO:LB:g=original	!	!	!	!	!	!	!	!	!	!	!	!	!	!
=47	=47	=47	=47	=47	=47	=47	=47	=47	=47	=47	=47	=47	=47	=47
8A\L]	2	.	8A\L	.	8f#\L	.	8b/L	.	8dd\L	.	4.B\	-i	.	.
16G#X\L	.	.	16G#X\L	.	8e\	.	8b/	.	8ee\	.	.	.	.	.
16F#\J	.	.	16F#\J	.	.	.	.	.	.	.	.	.	.	.
8G#X\J	6	.	8G#X\J	.	8e\J	.	8b/J	.	8ee\J	.	.	.	.	.
=48	=48	=48	=48	=48	=48	=48	=48	=48	=48	=48	=48	=48	=48	=48
!LO:TX:t=P:problem=mixed beam	!	!	!LO:TX:t=P:problem=mixed beam	!	!	!	!	!	!	!	!	!	!	!
8A\L	.	.	8A\L	.	4a\	.	4cc#\	.	4ee\	.	16c#\LL	Ma-	.	.
.	.	.	.	.	.	.	.	.	.	.	16B\JJ	.	.	.
8C#/	.	.	8C#/	.	.	.	.	.	.	.	8A\	-ter	.	.
8AA/J	.	.	8AA/J	.	8r	.	8r	.	8r	.	8r	.	.	.
=49	=49	=49	=49	=49	=49	=49	=49	=49	=49	=49	=49	=49	=49	=49
!	!	!	!	!	!	!	!	!	!LO:TUP:a:problem=klamra łukowa	!	!	!	!	!
8EE/L	#	.	8EE/L	.	8e\L	.	24g#X/LL	.	24b\LL	.	8r	.	.	.
.	.	.	.	.	.	.	24a/	.	24cc#\	.	.	.	.	.
.	.	.	.	.	.	.	24b/JJ	.	24dd\JJ	.	.	.	.	.
8EE/	6 4	.	8EE/	.	8e\	.	24a/LL	.	24cc#\LL	.	8E\	De-	.	.
.	.	.	.	.	.	.	24b/	.	24dd\	.	.	.	.	.
.	.	.	.	.	.	.	24cc#/JJ	.	24ee\JJ	.	.	.	.	.
8EE/J	7 #	.	8EE/J	.	8e\J	.	24b\LL	.	24g#X/LL	.	8E\	-i	.	.
.	.	.	.	.	.	.	24cc#\	.	24a/	.	.	.	.	.
.	.	.	.	.	.	.	24dd\JJ	.	24b/JJ	.	.	.	.	.
!	!	!	!	!	!LO:LB:g=original	!	!	!	!	!	!	!	!	!
=50	=50	=50	=50	=50	=50	=50	=50	=50	=50	=50	=50	=50	=50	=50
8EE/L	6 4	.	8EE/L	.	8e\L	.	24cc#\LL	.	24a/LL	.	(8E\L	Ma-	1.r	.
.	.	.	.	.	.	.	24dd\	.	24b/	.	.	.	.	.
.	.	.	.	.	.	.	24ee\JJ	.	24cc#/JJ	.	.	.	.	.
8EE/	5 #	.	8EE/	.	8e\	.	24g#X/LL	.	24B/LL	.	8d\J)	.	.	.
.	.	.	.	.	.	.	24a/	.	24c#/	.	.	.	.	.
.	.	.	.	.	.	.	24b/JJ	.	24d/JJ	.	.	.	.	.
8EE/J	6 4	.	8EE/J	.	8e\J	.	24a/LL	.	24c#/LL	.	8c#\	-ter	.	.
.	.	.	.	.	.	.	24b/	.	24d/	.	.	.	.	.
.	.	.	.	.	.	.	24cc#/JJ	.	24e/JJ	.	.	.	.	.
!	!	!	!LO:LB:g=original	!	!	!	!	!	!	!	!	!	!	!
=51	=51	=51	=51	=51	=51	=51	=51	=51	=51	=51	=51	=51	=51	=51
*	*	*	*	*	*	*	*	*	*tuplet	*	*	*	*	*
!LO:TX:t=P:problem=mixed beam	!	!	!LO:TX:t=P:problem=mixed beam	!	!	!	!	!	!	!	!	!	!	!
8D\L	6 5	.	8D\L	.	8f#\	.	24dd\LL	.	24ff#\LL	.	24d\LL	al-	.	.
.	.	.	.	.	.	.	24cc#\	.	24ee\	.	24A\	.	.	.
.	.	.	.	.	.	.	24b\JJ	.	24dd\JJ	.	24B\JJ	.	.	.
.	.	.	.	.	.	.	8qqa/	.	8qqcc#/	.	.	.	.	.
8E\	#	.	8E\	.	4e\	.	4g#Xt/	.	4bT\	.	4BT\	.	.	.
8EE/J	.	.	8EE/J	.	.	.	.	.	.	.	.	.	.	.
!	!	!	!	!	!	!	!	!	!	!	!LO:LB:g=original	!	!	!
=52	=52	=52	=52	=52	=52	=52	=52	=52	=52	=52	=52	=52	=52	=52
!	!	!	!	!LO:DY:b:t=for&colon;	!	!	!	!	!	!	!	!	!	!
4AA/	.	.	4AA/	f	4e\	.	8cc#\L	.	8cc#/L	.	8c#\	-ma	.	.
.	.	.	.	.	.	.	16b\L	.	16b/L	.	(16B\LL	De-	.	.
.	.	.	.	.	.	.	16a\	.	16a/	.	16A\JJ)	.	.	.
8r	.	.	8r	.	8r	.	16g#X\	.	16g#X/	.	16G#X\LL	-i	.	.
.	.	.	.	.	.	.	16f#\JJ	.	16f#/JJ	.	16F#\JJ	.	.	.
!	!	!	!	!	!	!	!LO:LB:g=original	!	!LO:LB:g=original	!	!	!	!	!
=53	=53	=53	=53	=53	=53	=53	=53	=53	=53	=53	=53	=53	=53	=53
!	!	!	!LO:TX:t=P:problem=brak trzech taktów 	!	!	!	!	!	!	!	!	!	!	!
8E\L	#	.	4.ryy	.	8e\L	.	8e/L	.	8e/L	.	8E\	Ma-	.	.
16F#\L	.	.	.	.	16f#\L	.	16f#/L	.	16f#/L	.	16F#\LL	.	.	.
16G#X\J	.	.	.	.	16g#X\J	.	16g#X/J	.	16g#X/J	.	16G#X\JJ	.	.	.
8A\J	.	.	.	.	8a\J	.	8a/J	.	8a/J	.	8A\	-ter	.	.
=54	=54	=54	=54	=54	=54	=54	=54	=54	=54	=54	=54	=54	=54	=54
!LO:TX:t=P:problem=mixed beam	!	!	!	!	!	!	!	!	!	!LO:DY:b:rj:t=for&colon;	!	!	!	!LO:DY:b:t=for&colon;
8D\L	.	.	4.ryy	.	8d\	.	8d/	.	8d/	f	8D\	al-	8dd\	f
8E\	#	.	.	.	4eT\	.	4eT/	.	4eT/	.	4ET\	.	4eeT\	.
8EE/J	.	.	.	.	.	.	.	.	.	.	.	.	.	.
=55	=55	=55	=55	=55	=55	=55	=55	=55	=55	=55	=55	=55	=55	=55
!	!	!LO:DY:b:t=forte	!	!	!	!LO:DY:b:rj:t=forte	!	!	!	!	!	!	!	!
4AA/	.	f	4.ryy	.	4e\	f	8A/L	.	8A/L	.	4AA/	-ma	4a/	.
!	!	!	!	!	!	!	!	!LO:DY:b:t=for	!	!	!	!	!	!
.	.	.	.	.	.	.	8a/	f	8a/	.	.	.	.	.
8r	.	.	.	.	8r	.	8cc#/J	.	8cc#/J	.	8r	.	8r	.
=56	=56	=56	=56	=56	=56	=56	=56	=56	=56	=56	=56	=56	=56	=56
!	!	!	!	!	!	!	!	!	!	!	!LO:TX:a:t=19.	!	!	!
8r	.	.	8r	.	8r	.	8ee\L	.	8ee\L	.	1.r	.	8r	.
!	!	!	!	!	!LO:TX:t=P:problem=mixed beam	!	!	!	!	!	!	!	!	!
8c#\L	6	.	8c#\L	.	8e\L	.	8a\	.	8a\	.	.	.	8ee\L	.
8A\J	.	.	8A\J	.	8E/J	.	8ccc#\J	.	8ccc#\J	.	.	.	8ee\J	.
=57	=57	=57	=57	=57	=57	=57	=57	=57	=57	=57	=57	=57	=57	=57
8G#X\L	6	.	8G#X\L	.	8B/L	.	16bb\LL	.	16bb\LL	.	.	.	8ee\	.
.	.	.	.	.	.	.	16ee\JJ	.	16ee\JJ	.	.	.	.	.
.	.	.	.	.	.	.	8qqee/	.	8qqee/	.	.	.	.	.
8F#\	6	.	8F#\	.	8A/	.	4dd\	.	4dd\	.	.	.	8r	.
8E\J	7 #	.	8E\J	.	8G#X/J	.	.	.	.	.	.	.	8r	.
=58	=58	=58	=58	=58	=58	=58	=58	=58	=58	=58	=58	=58	=58	=58
8A\L	.	.	8A\L	.	8r	.	8cc#\L	.	8cc#\L	.	.	.	8r	.
!	!	!	!	!	!LO:TX:t=P:problem=mixed beam	!	!	!	!	!	!	!	!	!
8c#\	6	.	8B\	.	8e\L	.	8a\	.	8a\	.	.	.	8ee\L	.
8A\J	.	.	8A\J	.	8E/J	.	8ccc#\J	.	8ccc#\J	.	.	.	8ee\J	.
=59	=59	=59	=59	=59	=59	=59	=59	=59	=59	=59	=59	=59	=59	=59
*	*	*	*	*	*	*	*tuplet	*	*Xtuplet	*	*	*	*	*
8G#X\L	6	.	8G#X\L	.	8B/L	.	24bb\LL	.	24bb\LL	.	.	.	8ee\L	.
.	.	.	.	.	.	.	24gg#X\	.	24gg#X\	.	.	.	.	.
.	.	.	.	.	.	.	24ee\JJ	.	24ee\JJ	.	.	.	.	.
.	.	.	.	.	.	.	8qqee/	.	8qqee/	.	.	.	.	.
8F#\	6	.	8F#\	.	8A/	.	4dd\	.	4dd\	.	.	.	8ff#\	.
8E\J	7 #	.	8E\J	.	8G#X/J	.	.	.	.	.	.	.	8gg#X\J	.
!LO:LB:g=original	!	!	!	!	!	!	!	!	!	!	!	!	!LO:LB:g=original	!
=60	=60	=60	=60	=60	=60	=60	=60	=60	=60	=60	=60	=60	=60	=60
!LO:TX:t=P:problem=mixed beam	!	!	!LO:TX:t=P:problem=mixed beam	!LO:DY:b:t=piano	!	!	!LO:TX:t=P:problem=mixed beam	!	!LO:TX:t=P:problem=mixed beam	!	!	!	!LO:TX:a:i:t=Solo	!
8A\L	.	.	8A\L	p	8E/L	.	8cc#\L	.	8cc#\L	.	1.r	.	16ee\LL	.
.	.	.	.	.	.	.	.	.	.	.	.	.	16a\JJ	.
!	!	!LO:DY:b:t=piano	!	!	!	!LO:DY:b:t=pia&colon;	!	!LO:DY:b:t=piano	!	!LO:DY:a:t=piano	!	!	!	!
8AA/	.	p	8AA/	.	8A/	p	8c#/	p	8e/	p	.	.	4aT/	.
8AA/J	.	.	8AA/J	.	8A/J	.	8c#/J	.	8e/J	.	.	.	.	.
=61	=61	=61	=61	=61	=61	=61	=61	=61	=61	=61	=61	=61	=61	=61
8AA/L	6 4	.	8AA/L	.	8r	.	8r	.	8r	.	.	.	16ee\LL	.
.	.	.	.	.	.	.	.	.	.	.	.	.	16a\JJ	.
8AA/	.	.	8AA/	.	8A/L	.	8d/L	.	8f#/L	.	.	.	4a/	.
8AA/J	.	.	8AA/J	.	8A/J	.	8d/J	.	8f#/J	.	.	.	.	.
=62	=62	=62	=62	=62	=62	=62	=62	=62	=62	=62	=62	=62	=62	=62
8AA/L	7 3	.	8AA/L	.	8ry	.	8r	.	8r	.	.	.	16gg\LL	.
.	.	.	.	.	.	.	.	.	.	.	.	.	16ee\JJ	.
!	!	!	!	!	!	!	!	!	!	!	!	!	!LO:TX:t=P:problem=mixed beam	!
8AA/	.	.	8AA/	.	8c#/L	.	8e/L	.	8g/L	.	.	.	8a/L	.
8AA/J	.	.	8AA/J	.	8c#/J	.	8e/J	.	8g/J	.	.	.	8gg\J	.
!	!	!	!	!	!LO:LB:g=original	!	!	!	!	!	!	!	!	!
=63	=63	=63	=63	=63	=63	=63	=63	=63	=63	=63	=63	=63	=63	=63
.	.	.	.	.	.	.	.	.	.	.	.	.	8qqgg/	.
8r	6 4	.	8r	.	8A/L	.	8d/L	.	(16f#/LL	.	.	.	8ff#\L	.
.	.	.	.	.	.	.	.	.	16d/J)	.	.	.	.	.
16AA/LL	5 3	.	16AA/LL	.	16c#/L	.	8c#/J	.	8e/J	.	.	.	8ee\J	.
16BB/	.	.	16BB/	.	16d/	.	.	.	.	.	.	.	.	.
16C#/	.	.	16C#/	.	16e/	.	8r	.	8r	.	.	.	8r	.
16BB/JJ	.	.	16BB/JJ	.	16d/JJ	.	.	.	.	.	.	.	.	.
!	!	!	!LO:LB:g=original	!	!	!	!	!	!	!	!	!	!	!
=64	=64	=64	=64	=64	=64	=64	=64	=64	=64	=64	=64	=64	=64	=64
*	*	*	*	*	*	*	*	*	*	*	*	*	*tuplet	*
!LO:TX:t=P:problem=mixed beam	!	!	!LO:TX:t=P:problem=mixed beam	!	!	!	!	!	!	!	!	!	!LO:TUP:a	!
8AA/L	.	.	8AA/L	.	8c#\L	.	8r	.	8r	.	1.r	.	24ee\LL	.
.	.	.	.	.	.	.	.	.	.	.	.	.	24ff#\	.
.	.	.	.	.	.	.	.	.	.	.	.	.	24ee\JJ	.
*	*	*	*	*	*	*	*	*	*	*	*	*	*Xtuplet	*
8A\	.	.	8A\	.	8a\	.	8e/L	.	8cc#\L	.	.	.	24a\LL	.
.	.	.	.	.	.	.	.	.	.	.	.	.	24ee\	.
.	.	.	.	.	.	.	.	.	.	.	.	.	24ff#\JJ	.
8A\J	.	.	8A\J	.	8a\J	.	8e/J	.	8cc#\J	.	.	.	24gg\LL	.
.	.	.	.	.	.	.	.	.	.	.	.	.	24ff#\	.
.	.	.	.	.	.	.	.	.	.	.	.	.	24ee\JJ	.
=65	=65	=65	=65	=65	=65	=65	=65	=65	=65	=65	=65	=65	=65	=65
*	*	*	*	*	*	*	*	*	*	*	*	*	*tuplet	*
!	!	!	!	!	!	!	!	!	!	!	!	!	!LO:TUP:a	!
8A\L	6 4	.	8A\L	.	8r	.	8r	.	8r	.	.	.	24ff#\LL	.
.	.	.	.	.	.	.	.	.	.	.	.	.	24gg\	.
.	.	.	.	.	.	.	.	.	.	.	.	.	24ff#\JJ	.
!	!	!	!	!	!	!	!	!	!	!	!	!	!LO:TUP:a	!
8A\	.	.	8A\	.	8a\L	.	8f#/L	.	8dd\L	.	.	.	24a\LL	.
.	.	.	.	.	.	.	.	.	.	.	.	.	24ff#\	.
.	.	.	.	.	.	.	.	.	.	.	.	.	24gg\JJ	.
*	*	*	*	*	*	*	*	*	*	*	*	*	*Xtuplet	*
8A\J	.	.	8A\J	.	8a\J	.	8f#/J	.	8dd\J	.	.	.	24aa\LL	.
.	.	.	.	.	.	.	.	.	.	.	.	.	24gg\	.
.	.	.	.	.	.	.	.	.	.	.	.	.	24ff#\JJ	.
!	!	!	!	!	!	!	!	!	!LO:LB:g=original	!	!	!	!	!
=66	=66	=66	=66	=66	=66	=66	=66	=66	=66	=66	=66	=66	=66	=66
8A\L	7 3	.	8A\L	.	8r	.	8r	.	8r	.	.	.	24gg\LL	.
.	.	.	.	.	.	.	.	.	.	.	.	.	24aa\	.
.	.	.	.	.	.	.	.	.	.	.	.	.	24gg\JJ	.
8A\	.	.	8A\	.	8cc#\L	.	8g/L	.	8ee\L	.	.	.	24a\LL	.
.	.	.	.	.	.	.	.	.	.	.	.	.	24gg\	.
.	.	.	.	.	.	.	.	.	.	.	.	.	24aa\JJ	.
*	*	*	*	*	*	*	*	*	*	*	*	*	*custos:bb	*
!	!	!	!	!	!	!	!	!	!	!	!	!	!LO:LB:g=original	!
8A\J	.	.	8A\J	.	8cc#\J	.	8g/J	.	8ee\J	.	.	.	24bb\LL	.
.	.	.	.	.	.	.	.	.	.	.	.	.	24aa\	.
.	.	.	.	.	.	.	.	.	.	.	.	.	24gg\JJ	.
!	!	!	!	!	!	!	!LO:LB:g=original	!	!	!	!	!	!	!
=67	=67	=67	=67	=67	=67	=67	=67	=67	=67	=67	=67	=67	=67	=67
.	.	.	.	.	.	.	8qqg/	.	8qqee/	.	.	.	.	.
!	!	!	!	!	!LO:TX:t=P:problem=mixed beam	!	!	!	!	!	!	!	!	!
8r	6 4	.	8r	.	8a\L	.	8f#/L	.	8dd\L	.	.	.	16ff#\LL	.
.	.	.	.	.	.	.	.	.	.	.	.	.	16ee\J	.
.	.	.	.	.	.	.	.	.	.	.	.	.	8qqdd/	.
16A\LL	5 3	.	16A\LL	.	8A/J	.	8e/J	.	8cc#\J	.	.	.	8ee\J	.
16Gn\	.	.	16G\	.	.	.	.	.	.	.	.	.	.	.
16F#\	.	.	16F#\	.	8r	.	8r	.	8r	.	.	.	8r	.
16E\JJ	.	.	16E\JJ	.	.	.	.	.	.	.	.	.	.	.
=68	=68	=68	=68	=68	=68	=68	=68	=68	=68	=68	=68	=68	=68	=68
*	*	*	*	*	*	*	*	*	*tuplet	*	*	*	*	*
!	!	!	!	!	!	!	!	!LO:DY:b:t=forte	!	!LO:DY:b:t=for&colon;	!	!	!	!
8D/	.	.	8D/	.	8r	.	8a/	f	24ff#\LL	f	1.r	.	8r	.
.	.	.	.	.	.	.	.	.	24ee\	.	.	.	.	.
.	.	.	.	.	.	.	.	.	24dd\JJ	.	.	.	.	.
!	!	!	!	!	!	!LO:DY:b:t=piano	!	!	!	!	!	!	!	!
[4d\	6	.	[4d\	.	8f#\L	p	[>4b/	.	24dd\LL	.	.	.	8ff#\L	.
.	.	.	.	.	.	.	.	.	24cc#\	.	.	.	.	.
.	.	.	.	.	.	.	.	.	24b\JJ	.	.	.	.	.
*	*	*	*	*	*	*	*	*	*Xtuplet	*	*	*	*	*
.	5	.	.	.	8f#\J	.	.	.	24bb\LL	.	.	.	8ff#\J	.
.	.	.	.	.	.	.	.	.	24ff#\	.	.	.	.	.
.	.	.	.	.	.	.	.	.	24aa\JJ	.	.	.	.	.
=69	=69	=69	=69	=69	=69	=69	=69	=69	=69	=69	=69	=69	=69	=69
.	.	.	.	.	.	.	.	.	8qqaa/	.	.	.	.	.
8d\L]	+4r	.	8d\L]	.	8.e\L	.	8b\L]	.	4gg#X\	.	.	.	4gg#X\	.
16c#\L	.	.	16c#\L	.	.	.	16cc#\L	.	.	.	.	.	.	.
16B\J	.	.	16B\J	.	16d\K	.	16dd\J	.	.	.	.	.	.	.
8c#\J	6	.	8c#\J	.	8c#\J	.	8ee\J	.	16aa\LL	.	.	.	[8aa\	.
.	.	.	.	.	.	.	.	.	16ee\JJ	.	.	.	.	.
=70	=70	=70	=70	=70	=70	=70	=70	=70	=70	=70	=70	=70	=70	=70
8d\L	6	.	8d\L	.	8f#\L	.	16dd\LL	.	16ff#\LL	.	.	.	8aa\]	.
.	.	.	.	.	.	.	16b\JJ	.	16dd\JJ	.	.	.	.	.
.	.	.	.	.	.	.	8qqa/	.	8qqcc#/	.	.	.	.	.
8e\	#	.	8f#\	.	8e\	.	4g#Xt/	.	4bT/	.	.	.	4gg#Xt\	.
8E\J	.	.	8E\J	.	8d\J	.	.	.	.	.	.	.	.	.
=71	=71	=71	=71	=71	=71	=71	=71	=71	=71	=71	=71	=71	=71	=71
*	*	*	*	*	*	*	*Xtuplet	*	*	*	*	*	*	*
4.A\	.	.	4.A\	.	8c#/L	.	24a\LL	.	24cc#\LL	.	.	.	8aa\	.
.	.	.	.	.	.	.	24cc#\	.	24a\	.	.	.	.	.
.	.	.	.	.	.	.	24a\JJ	.	24cc#\JJ	.	.	.	.	.
.	.	.	.	.	8B/	.	24b\LL	.	24dd\LL	.	.	.	8r	.
.	.	.	.	.	.	.	24dd\	.	24b\	.	.	.	.	.
.	.	.	.	.	.	.	24b\JJ	.	24dd\JJ	.	.	.	.	.
.	.	.	.	.	8A/J	.	24cc#\LL	.	24ee\LL	.	.	.	8r	.
.	.	.	.	.	.	.	24ee\	.	24cc#\	.	.	.	.	.
.	.	.	.	.	.	.	24cc#\JJ	.	24ee\JJ	.	.	.	.	.
=72	=72	=72	=72	=72	=72	=72	=72	=72	=72	=72	=72	=72	=72	=72
4.D/	.	.	4.D/	.	8f#\L	.	24dd\LL	.	24ff#\LL	.	2.r	.	8a/	.
.	.	.	.	.	.	.	24ff#\	.	24dd\	.	.	.	.	.
.	.	.	.	.	.	.	24dd\JJ	.	24ff#\JJ	.	.	.	.	.
.	.	.	.	.	8e\	.	24ee\LL	.	24gg\LL	.	.	.	8r	.
.	.	.	.	.	.	.	24gg\	.	24ee\	.	.	.	.	.
.	.	.	.	.	.	.	24ee\JJ	.	24gg\JJ	.	.	.	.	.
.	.	.	.	.	8d\J	.	24ff#\LL	.	24aa\LL	.	.	.	8r	.
.	.	.	.	.	.	.	24aa\	.	24ff#\	.	.	.	.	.
.	.	.	.	.	.	.	24ff#\JJ	.	24aa\JJ	.	.	.	.	.
=73	=73	=73	=73	=73	=73	=73	=73	=73	=73	=73	=73	=73	=73	=73
*	*	*	*	*	*	*	*	*	*tuplet	*	*	*	*	*
!LO:TX:t=P:problem=mixed beam	!	!	!LO:TX:t=P:problem=mixed beam	!	!	!	!	!	!	!	!	!	!	!
8D\L	6	.	8D\L	.	16r	.	24dd\LL	.	24ff#\LL	.	.	.	8ff#\L	.
.	.	.	.	.	.	.	24cc#\	.	24ee\	.	.	.	.	.
.	.	.	.	.	16f#\	.	.	.	.	.	.	.	.	.
.	.	.	.	.	.	.	24b\JJ	.	24dd\JJ	.	.	.	.	.
8E\	6 4	.	8E\	.	8e\L	.	8a/L	.	8cc#\L	.	.	.	8aa\	.
8EE/J	7 #	.	8EE/J	.	8d\J	.	8g#Xt/J	.	8bT\J	.	.	.	8gg#Xt\J	.
!LO:LB:g=original	!	!	!LO:LB:g=original	!	!	!	!	!	!LO:LB:g=original	!	!	!	!	!
=74	=74	=74	=74	=74	=74	=74	=74	=74	=74	=74	=74	=74	=74	=74
.	.	.	.	.	.	.	8qqg/	.	.	.	.	.	.	.
!LO:TX:t=P:problem=mixed beam	!	!	!LO:TX:t=P:problem=mixed beam	!	!	!	!	!	!	!	!	!	!	!
8AA/L	.	.	8AA/L	.	4c#/	.	4a/	.	4a/	.	4.r	.	4aa\	.
16A\L	.	.	16A\L	.	.	.	.	.	.	.	.	.	.	.
16Gn\	.	.	16Gn\	.	.	.	.	.	.	.	.	.	.	.
16F#\	.	.	16F#\	.	8r	.	8r	.	8r	.	.	.	8r	.
16E\JJ	.	.	16E\JJ	.	.	.	.	.	.	.	.	.	.	.
!	!	!	!	!	!LO:LB:g=original	!	!	!	!	!	!	!	!	!
=75	=75	=75	=75	=75	=75	=75	=75	=75	=75	=75	=75	=75	=75	=75
!	!	!LO:DY:b:t=piano	!	!LO:DY:b:t=piano	!	!LO:DY:b:t=pia&colon;	!	!	!	!	!	!	!	!
4D/	.	p	4D/	p	4A/	p	8r	.	8r	.	8r	.	8r	.
!	!	!	!	!	!	!	!	!	!	!LO:DY:a:t=piano	!	!	!	!LO:DY:a:t=piano
.	.	.	.	.	.	.	8d/L	.	8d/L	p	8D/	A-	8d/L	p
8r	.	.	8r	.	8r	.	8f#/J	.	8f#/J	.	8F#\	-ve	8f#/J	.
=76	=76	=76	=76	=76	=76	=76	=76	=76	=76	=76	=76	=76	=76	=76
8r	.	.	8r	.	8r	.	8a/L	.	8a/L	.	(8A\L	Ma-	8a/L	.
8F#\L	6	.	8F#\L	.	8a\L	.	8d/J	.	8d/	.	8D\J)	.	8d/J	.
8D\J	.	.	8D\J	.	8f#\J	.	8r	.	8dd/J	.	8d\	-ris	8r	.
!	!	!	!	!	!	!	!	!	!	!	!	!	!LO:LB:g=original	!
=77	=77	=77	=77	=77	=77	=77	=77	=77	=77	=77	=77	=77	=77	=77
!	!	!	!	!	!	!	!	!	!	!	!	!	!LO:TX:a:t=5.	!
8A\L	.	.	8A\L	.	8r	.	16e/LL	.	8cc#\	.	8c#\	ſtel-	1.r	.
.	.	.	.	.	.	.	16f#/JJ	.	.	.	.	.	.	.
8E\	n6	.	8E\	.	8e\L	.	8g/L	.	4ccn\	.	4cn\	-la	.	.
8F#\J	6 5	.	8F#\J	.	8d\J	.	8a/J	.	.	.	.	.	.	.
=78	=78	=78	=78	=78	=78	=78	=78	=78	=78	=78	=78	=78	=78	=78
.	.	.	.	.	.	.	8qqb/	.	8qqdd/	.	8qqd/	.	.	.
!LO:TX:t=P:problem=mixed beam	!	!	!LO:TX:t=P:problem=mixed beam	!	!	!	!	!	!	!	!	!	!	!
8G\L	4 9	.	8G\L	.	4d\	.	8a/L	.	8cc#\L	.	8c#\	A-	.	.
8BB|/	8 6	.	8BB|/	.	.	.	8g/J	.	8b\J	.	8B\	-ve	.	.
8D|/J	.	.	8D|/J	.	8r	.	8r	.	8r	.	8r	.	.	.
!	!	!	!	!	!	!	!LO:LB:g=original	!	!	!	!LO:LB:g=original	!	!	!
=79	=79	=79	=79	=79	=79	=79	=79	=79	=79	=79	=79	=79	=79	=79
.	.	.	.	.	.	.	.	.	.	.	16qqG/LL	.	.	.
.	.	.	.	.	.	.	.	.	.	.	16qqA/JJ	.	.	.
8GG/L	.	.	8GG/L	.	8d\L	.	8b/L	.	8dd\L	.	4.B\	A-	.	.
8GG/	.	.	8GG/	.	8d\	.	8b/	.	8dd\	.	.	.	.	.
8GG/J	.	.	8GG/J	.	8d\J	.	8b/J	.	8dd\J	.	.	.	.	.
=80	=80	=80	=80	=80	=80	=80	=80	=80	=80	=80	=80	=80	=80	=80
8GG/L	#5	.	8GG/L	.	8g\L	.	8b/L	.	8dd#X\L	.	4.D#Xt/	.	.	.
8GG/	.	.	8GG/	.	8g\	.	8b/	.	8dd#\	.	.	.	.	.
8GG/J	.	.	8GG/J	.	8g\J	.	8b/J	.	8dd#\J	.	.	.	.	.
=81	=81	=81	=81	=81	=81	=81	=81	=81	=81	=81	=81	=81	=81	=81
8GG/L	6	.	8GG/L	.	8e\L	.	8b/L	.	8ee\L	.	16E\LL	.	4.r	.
.	.	.	.	.	.	.	.	.	.	.	16F#\	.	.	.
8GG/	.	.	8GG/	.	8e\	.	8b/	.	8ee\	.	16G\	.	.	.
.	.	.	.	.	.	.	.	.	.	.	16A\	.	.	.
8GG#X/J	n5	.	8GG#X/J	.	8e\J	.	8b/J	.	8ddn\J	.	16B\	.	.	.
.	.	.	.	.	.	.	.	.	.	.	16Dn\JJ	.	.	.
=82	=82	=82	=82	=82	=82	=82	=82	=82	=82	=82	=82	=82	=82	=82
.	.	.	.	.	.	.	.	.	.	.	8qqD/	.	.	.
!	!	!	!	!	!	!	!	!	!LO:TX:t=P:problem=mixed beam	!	!	!	!	!
8AA|/L	.	.	8AA~/L	.	8e\L	.	8cc#/L	.	8cc#\L	.	4C#/	-ve	8r	.
8C#|/	.	.	8C#~/	.	8c#\	.	8c#/	.	8c#/	.	.	.	8a/L	.
8E|/J	.	.	8E~/J	.	8e\J	.	8e/J	.	8e/J	.	8r	.	8a/J	.
=83	=83	=83	=83	=83	=83	=83	=83	=83	=83	=83	=83	=83	=83	=83
!	!	!	!	!	!	!	!	!	!LO:TX:t=P:problem=mixed beam	!	!	!	!	!
8AA/	.	.	8AA/	.	8A\L	.	8A/L	.	8A/L	.	4.A\	Ma-	4a/	.
[4A\	.	.	4A\	.	8e\	.	8a/	.	8cc#\	.	.	.	.	.
.	.	.	.	.	8e\J	.	8a/J	.	8cc#\J	.	.	.	8r	.
!	!	!	!LO:LB:g=original	!	!	!	!	!	!	!	!	!	!	!
=84	=84	=84	=84	=84	=84	=84	=84	=84	=84	=84	=84	=84	=84	=84
!	!	!	!	!	!	!	!	!	!	!	!	!	!LO:TX:a:t=7.	!
8A\L]	2	.	8A\L	.	8f#\L	.	8b/L	.	8dd\L	.	4.B\	-ris	1.r	.
16G#X\L	.	.	16G#X\L	.	8e\	.	8b/	.	8ee\	.	.	.	.	.
16F#\J	.	.	16G#\J	.	.	.	.	.	.	.	.	.	.	.
8G#X\J	6	.	8G#\J	.	8e\J	.	8b/J	.	8ee\J	.	.	.	.	.
=85	=85	=85	=85	=85	=85	=85	=85	=85	=85	=85	=85	=85	=85	=85
!	!	!	!	!	!	!	!	!	!LO:TX:t=P:problem=mixed beam	!	!	!	!	!
8A|\L	.	.	8A~\L	.	8a|\L	.	8cc#\L	.	8ee\L	.	16c#\LL	ſtel-	.	.
.	.	.	.	.	.	.	.	.	.	.	16B\JJ	.	.	.
8Gn|\	.	.	8Gn~\	.	8gn|\	.	8gn|\	.	8gn|/	.	8A\	-la	.	.
8E|\J	.	.	8E~\J	.	8e|\J	.	8e|\J	.	8e|/J	.	8r	.	.	.
!	!	!	!	!	!	!	!	!	!LO:LB:g=original	!	!	!	!	!
=86	=86	=86	=86	=86	=86	=86	=86	=86	=86	=86	=86	=86	=86	=86
!	!	!	!	!	!	!	!LO:TX:t=P:problem=mixed beam	!	!LO:TX:t=P:problem=mixed beam	!	!	!	!	!
8D/	.	.	8D/	.	8d\L	.	8d/L	.	8d/L	.	4.d\	De-	.	.
[4D/	.	.	[4D/	.	8a\	.	8dd\	.	8ff#\	.	.	.	.	.
.	.	.	.	.	8a\J	.	8dd\J	.	8ff#\J	.	.	.	.	.
=87	=87	=87	=87	=87	=87	=87	=87	=87	=87	=87	=87	=87	=87	=87
.	.	.	.	.	.	.	.	.	.	.	8qqA/	.	.	.
8D/L]	2	.	8D/L]	.	8b\	.	8ee\L	.	8gg\L	.	4.G\	-i	.	.
16C#/L	.	.	16C#/L	.	4a\	.	8ee\	.	8aa\	.	.	.	.	.
16BB/J	.	.	16BB/J	.	.	.	.	.	.	.	.	.	.	.
8C#/J	6	.	8C#/J	.	.	.	8ee\J	.	8gg\J	.	.	.	.	.
!LO:LB:g=original	!	!	!	!	!	!	!	!	!	!	!	!	!	!
=88	=88	=88	=88	=88	=88	=88	=88	=88	=88	=88	=88	=88	=88	=88
8D/L	.	.	8D/L	.	4a\	.	4dd\	.	4ff#\	.	16F#\LL	Ma-	2.r	.
.	.	.	.	.	.	.	.	.	.	.	16E\JJ	.	.	.
8C#/	2	.	8C#/	.	.	.	.	.	.	.	16D\LL	.	.	.
.	.	.	.	.	.	.	.	.	.	.	16E\	.	.	.
8BB/J	6\	.	8BB/J	.	8r	.	8r	.	8r	.	16F#\	.	.	.
.	.	.	.	.	.	.	.	.	.	.	16G#X\JJ	.	.	.
!	!	!	!	!	!LO:LB:g=original	!	!	!	!	!	!	!	!	!
=89	=89	=89	=89	=89	=89	=89	=89	=89	=89	=89	=89	=89	=89	=89
!	!	!	!	!	!	!	!LO:TX:a:t=2.	!	!LO:TX:a:t=2.	!	!	!	!	!
8AA/L	.	.	8AA/L	.	8c#\L	.	2.r	.	2.r	.	8A\	.	.	.
.	.	.	.	.	.	.	.	.	.	.	8qqA/	.	.	.
8BB/	n6	.	8BB/	.	8d\	.	.	.	.	.	4Gn\	-ter	.	.
8C#/J	5	.	8C#/J	.	8e\J	.	.	.	.	.	.	.	.	.
!	!	!	!	!	!	!	!	!	!	!	!LO:LB:g=original	!	!	!
=90	=90	=90	=90	=90	=90	=90	=90	=90	=90	=90	=90	=90	=90	=90
8D/L	.	.	8D/L	.	8f#\L	.	.	.	.	.	16F#\LL	Al-	4.r	.
.	.	.	.	.	.	.	.	.	.	.	16E\JJ	.	.	.
8C#/	2	.	8C#/	.	8e\	.	.	.	.	.	16D\LL	.	.	.
.	.	.	.	.	.	.	.	.	.	.	16E\	.	.	.
8BB/J	6\	.	8BB/J	.	8d\J	.	.	.	.	.	16F#\	.	.	.
.	.	.	.	.	.	.	.	.	.	.	16G#X\JJ	.	.	.
=91	=91	=91	=91	=91	=91	=91	=91	=91	=91	=91	=91	=91	=91	=91
*	*	*	*	*	*	*	*	*	*Xtuplet	*	*	*	*	*
!	!	!	!	!	!	!	!LO:TUP:a:problem=klamra łukowa	!	!LO:TUP:a:problem=klamra łukowa	!	!	!	!	!
8AA/L	.	.	8AA/L	.	8e\L	.	24b\LL	.	24cc#\LL	.	[4.A\	.	4aa\	.
.	.	.	.	.	.	.	24cc#\	.	24dd\	.	.	.	.	.
.	.	.	.	.	.	.	24dd\JJ	.	24ee\JJ	.	.	.	.	.
!	!	!	!	!	!	!	!LO:TUP:a:problem=klamra łukowa	!	!LO:TUP:a:problem=klamra łukowa	!	!	!	!	!
8AA/	6 4	.	8AA/	.	8A\	.	24b\LL	.	24dd\LL	.	.	.	.	.
.	.	.	.	.	.	.	24cc#\	.	24ee\	.	.	.	.	.
.	.	.	.	.	.	.	24dd\JJ	.	24ff#\JJ	.	.	.	.	.
!	!	!	!	!	!	!	!LO:TUP:a:problem=klamra łukowa	!	!LO:TUP:a:problem=klamra łukowa	!	!	!	!	!
8AA/J	7 3	.	8AA/J	.	8A\J	.	24cc#\LL	.	24ee\LL	.	.	.	8gg\	.
.	.	.	.	.	.	.	24dd\	.	24ff#\	.	.	.	.	.
.	.	.	.	.	.	.	24ee\JJ	.	24gg\JJ	.	.	.	.	.
=92	=92	=92	=92	=92	=92	=92	=92	=92	=92	=92	=92	=92	=92	=92
!	!	!	!	!	!	!	!LO:TUP:a:problem=klamra łukowa	!	!	!	!	!	!	!
8AA/L	6 4	.	8AA/L	.	8A/L	.	24dd\LL	.	24ff#\LL	.	4.A\_	.	8ff#\L	.
.	.	.	.	.	.	.	24cc#\	.	24ee\	.	.	.	.	.
.	.	.	.	.	.	.	24b\JJ	.	24dd\JJ	.	.	.	.	.
!	!	!	!	!	!	!	!LO:TUP:a:problem=klamra łukowa	!	!	!	!	!	!	!
8AA/	5 3	.	8AA/	.	8A/	.	24cc#\LL	.	24ee\LL	.	.	.	8ee\	.
.	.	.	.	.	.	.	24b\	.	24dd\	.	.	.	.	.
.	.	.	.	.	.	.	24a\JJ	.	24cc#\JJ	.	.	.	.	.
!	!	!	!	!	!	!	!LO:TUP:b:problem=klamra łukowa	!	!	!	!	!	!	!
8AA/J	#7r 2	.	8AA/J	.	8A/J	.	24b/LL	.	24dd\LL	.	.	.	8gg#X\J	.
.	.	.	.	.	.	.	24a/	.	24cc#\	.	.	.	.	.
.	.	.	.	.	.	.	24g#X/JJ	.	24b\JJ	.	.	.	.	.
!	!	!	!	!	!	!	!LO:LB:g=original	!	!	!	!	!	!	!
=93	=93	=93	=93	=93	=93	=93	=93	=93	=93	=93	=93	=93	=93	=93
!	!	!	!	!	!	!	!LO:TUP:a:problem=klamra łukowa	!	!	!	!	!	!LO:TX:t=P:problem=mixed beam	!
8AA/L	8 3	.	8AA/L	.	8A/L	.	24a\LL	.	24cc#\LL	.	4.A\_	.	8aa\L	.
.	.	.	.	.	.	.	24b\	.	24dd\	.	.	.	.	.
.	.	.	.	.	.	.	24cc#\JJ	.	24ee\JJ	.	.	.	.	.
!	!	!	!	!	!	!	!LO:TUP:a:problem=klamra łukowa	!	!	!	!	!	!	!
8AA/	6 4	.	8AA/	.	8A/	.	24b\LL	.	24dd\LL	.	.	.	8a/	.
.	.	.	.	.	.	.	24cc#\	.	24ee\	.	.	.	.	.
.	.	.	.	.	.	.	24dd\JJ	.	24ff#\JJ	.	.	.	.	.
!	!	!	!	!	!	!	!LO:TUP:a:problem=klamra łukowa	!	!	!	!	!	!	!
8AA/J	7 3	.	8AA/J	.	8A/J	.	24cc#\LL	.	24ee\LL	.	.	.	8a/J	.
.	.	.	.	.	.	.	24dd\	.	24ff#\	.	.	.	.	.
.	.	.	.	.	.	.	24ee\JJ	.	24gg\JJ	.	.	.	.	.
!	!	!	!LO:LB:g=original	!	!	!	!	!	!	!	!	!	!	!
=94	=94	=94	=94	=94	=94	=94	=94	=94	=94	=94	=94	=94	=94	=94
8AA/L	6 4	.	8AA/L	.	8A/L	.	24dd\LL	.	24ff#\LL	.	4.A\]	-ma	4a/	.
.	.	.	.	.	.	.	24cc#\	.	24ee\	.	.	.	.	.
.	.	.	.	.	.	.	24b\JJ	.	24dd\JJ	.	.	.	.	.
8AA/	5 3	.	8AA/	.	8A/	.	24cc#\LL	.	24ee\LL	.	.	.	.	.
.	.	.	.	.	.	.	24b\	.	24dd\	.	.	.	.	.
.	.	.	.	.	.	.	24a\JJ	.	24cc#\JJ	.	.	.	.	.
8AA/J	#7r 2	.	8AA/J	.	8A/J	.	24b/LL	.	24dd\LL	.	.	.	8r	.
.	.	.	.	.	.	.	24a/	.	24cc#\	.	.	.	.	.
.	.	.	.	.	.	.	24g#X/JJ	.	24b\JJ	.	.	.	.	.
=95	=95	=95	=95	=95	=95	=95	=95	=95	=95	=95	=95	=95	=95	=95
8AA/L	8 3	.	8AA/L	.	[4.c#/	.	[4.e/	.	[4.a/	.	(8AA/L	a-	[4.aa\	.
8AA/	.	.	8AA/	.	.	.	.	.	.	.	8C#/J)	.	.	.
8AA/J	.	.	8AA/J	.	.	.	.	.	.	.	8E\	-ve	.	.
=96	=96	=96	=96	=96	=96	=96	=96	=96	=96	=96	=96	=96	=96	=96
8AA/L	n7r	.	8AA/L	.	4.c#/_	.	4.e/_	.	4.a/]	.	(8G\L	a-	8aa\L]	.
8AA/	.	.	8AA/	.	.	.	.	.	.	.	8E\J)	.	8ccc#\	.
8AA/J	.	.	8AA/J	.	.	.	.	.	.	.	8C#/	-ve	8eee\J	.
!	!	!	!	!	!	!	!	!	!LO:LB:g=original	!	!	!	!	!
=97	=97	=97	=97	=97	=97	=97	=97	=97	=97	=97	=97	=97	=97	=97
8AA/L	.	.	8AA/L	.	4.c#/]	.	4.e/]	.	4.g/	.	8AA/	Ma-	8ggg\L	.
8AA/	.	.	8AA/	.	.	.	.	.	.	.	8C#/	-ris	8eee\	.
8AA/J	.	.	8AA/J	.	.	.	.	.	.	.	8E\	ſtel-	8ccc#\J	.
=98	=98	=98	=98	=98	=98	=98	=98	=98	=98	=98	=98	=98	=98	=98
4BB-X;</	6 4 2 #	.	4BB-X;</	.	4.c#;</	.	4.e;</	.	4g;</	.	4G;\	-la	4ccc#;\	.
8r	.	.	8r	.	.	.	.	.	8r	.	8r	.	8r	.
!	!	!	!	!	!	!	!	!	!	!	!LO:LB:g=original	!	!LO:LB:g=original	!
=99	=99	=99	=99	=99	=99	=99	=99	=99	=99	=99	=99	=99	=99	=99
!	!	!	!	!	!	!	!	!	!	!	!	!	!LO:TX:a:t=3.	!
8BBn/L	6\	.	8BBn/L	.	8r	.	8dd\L	.	4.gg#X\	.	4G#X\	De-	2.r	.
8E/	.	.	8E/	.	8r	.	8b\	.	.	.	.	.	.	.
8D/J	.	.	8D/J	.	8b\	.	8ee\J	.	.	.	8G#\	-i	.	.
=100	=100	=100	=100	=100	=100	=100	=100	=100	=100	=100	=100	=100	=100	=100
8C#/L	6	.	8C#/L	.	4e\	.	(8a/L	.	8aa\L	.	8A\	Ma-	.	.
8AA/	7	.	8AA/	.	.	.	8g/)	.	8cc#\	.	16B\LL	.	.	.
.	.	.	.	.	.	.	.	.	.	.	16c#\JJ	.	.	.
8BB/J	5	.	8BB/J	.	8d\	.	8f#|/J	.	[8dd\J	.	8d\	-ter	.	.
=101	=101	=101	=101	=101	=101	=101	=101	=101	=101	=101	=101	=101	=101	=101
8G\L	.	.	8G\L	.	8B/L	.	16b/LL	.	16dd\LL]	.	(16B\LL	al-	4.r	.
.	.	.	.	.	.	.	16g/JJ	.	16bb\JJ	.	16G\JJ)	.	.	.
.	.	.	.	.	.	.	8qqf#/	.	8qqdd/	.	8qqF#/	.	.	.
8A\	.	.	8A\	.	8A/	.	4eT/	.	4cc#t\	.	4ET\	.	.	.
8G\J	.	.	8G\J	.	8A/J	.	.	.	.	.	.	.	.	.
=102	=102	=102	=102	=102	=102	=102	=102	=102	=102	=102	=102	=102	=102	=102
8.F#\L	6	.	8.F#\L	.	4A/	.	4ff# 4b 4d/	.	4ff# 4b 4d/	.	16D\LL	.	4d/	.
.	.	.	.	.	.	.	.	.	.	.	16d\JJ	.	.	.
.	.	.	.	.	.	.	.	.	.	.	16c#\LL	.	.	.
16G\L	.	.	16G\L	.	.	.	.	.	.	.	16B\	.	.	.
16F#\	.	.	16F#\	.	8r	.	8r	.	8r	.	16A\	.	8r	.
16E\JJ	.	.	16E\JJ	.	.	.	.	.	.	.	16G\JJ	.	.	.
!LO:LB:g=original	!	!	!LO:LB:g=original	!	!LO:LB:g=original	!	!	!	!	!	!	!	!	!
=103	=103	=103	=103	=103	=103	=103	=103	=103	=103	=103	=103	=103	=103	=103
4D/	.	.	4D/	.	4A/	.	4ff# 4b 4d/	.	4ff# 4b 4d/	.	16F#\LL	.	4d/	.
.	.	.	.	.	.	.	.	.	.	.	16B\	.	.	.
.	.	.	.	.	.	.	.	.	.	.	16A\	.	.	.
.	.	.	.	.	.	.	.	.	.	.	16G\	.	.	.
8r	.	.	8r	.	8r	.	8r	.	8r	.	16F#\	.	8r	.
.	.	.	.	.	.	.	.	.	.	.	16E\JJ	.	.	.
=104	=104	=104	=104	=104	=104	=104	=104	=104	=104	=104	=104	=104	=104	=104
8D|\L	.	.	8D~\L	.	8d\L	.	8d/L	.	8d/L	.	24D\LL	.	8d/L	.
.	.	.	.	.	.	.	.	.	.	.	24E\	.	.	.
.	.	.	.	.	.	.	.	.	.	.	24D\JJ	.	.	.
8F#|\	.	.	8F#~\	.	8f#\	.	8f#/	.	8f#/	.	24F#\LL	.	8f#/	.
.	.	.	.	.	.	.	.	.	.	.	24G\	.	.	.
.	.	.	.	.	.	.	.	.	.	.	24F#\JJ	.	.	.
8A|\J	.	.	8A~\J	.	8a\J	.	8a/J	.	8a/J	.	24A\LL	.	8a/J	.
.	.	.	.	.	.	.	.	.	.	.	24B\	.	.	.
.	.	.	.	.	.	.	.	.	.	.	24A\JJ	.	.	.
!	!	!	!	!	!	!	!	!	!	!	!LO:LB:g=original	!	!	!
=105	=105	=105	=105	=105	=105	=105	=105	=105	=105	=105	=105	=105	=105	=105
!	!	!	!	!	!	!	!LO:TX:t=P:problem=mixed beam	!	!LO:TX:t=P:problem=mixed beam	!	!	!	!LO:TX:t=P:problem=mixed beam	!
8d|\L	.	.	8d\L	.	8dd\L	.	8dd\L	.	8dd\L	.	8d,\	-ma	8dd\L	.
8F#|\	.	.	8F#\	.	8g\	.	8f#/	.	8f#/	.	8F#\	De-	8f#/	.
8A|\J	.	.	8A\J	.	8a\J	.	8a/J	.	8a/J	.	8A\	-i	8a/J	.
!	!	!	!	!	!	!	!LO:LB:g=original	!	!	!	!	!	!	!
=106	=106	=106	=106	=106	=106	=106	=106	=106	=106	=106	=106	=106	=106	=106
!	!	!LO:DY:b:t=forte	!	!LO:DY:b:rj:t=for&colon;	!	!LO:DY:b:t=forte	!	!	!	!	!	!	!	!
8D|\L	.	f	8D\L	f	8d|\L	f	8d/L	.	8d/L	.	(8D\L	Ma-	8d/L	.
!	!	!	!	!	!	!	!	!LO:DY:b:t=for	!	!LO:DY:b:t=for	!	!	!	!
8F#|\	.	.	8F#\	.	8f#|\	.	8f#/	f	8f#/	f	8F#\J)	.	8f#/	.
!	!	!	!	!	!	!	!	!	!	!	!	!	!	!LO:DY:b:t=for
8A|\J	.	.	8A\J	.	8a|\J	.	8a/J	.	8a/J	.	8A\	-ter	8a/J	f
=107	=107	=107	=107	=107	=107	=107	=107	=107	=107	=107	=107	=107	=107	=107
!	!	!	!	!	!	!	!LO:TX:t=P:problem=mixed beam	!	!LO:TX:t=P:problem=mixed beam	!	!	!	!LO:TX:t=P:problem=mixed beam	!
8d|\L	.	.	8d\L	.	8dd\L	.	8dd\L	.	8dd\L	.	(8d\L	al-	8dd\L	.
8F#|\	.	.	8F#\	.	8f#\	.	8f#/	.	8f#/	.	8F#\)	.	8f#/	.
8A|\J	.	.	8A\J	.	8a\J	.	8a/J	.	8a/J	.	8A\J	.	8a/J	.
=108	=108	=108	=108	=108	=108	=108	=108	=108	=108	=108	=108	=108	=108	=108
!	!	!	!	!	!	!LO:DY:b:t=fortiſs	!LO:TX:t=P:problem=mixed beam	!LO:DY:b:t=forte	!LO:TX:t=P:problem=mixed beam	!	!	!	!	!
4D/	.	.	4D/	.	8d\	ff	16d/LL	f	16d/LL	.	4D/	-ma	4d/	.
.	.	.	.	.	.	.	16dd\	.	16dd\	.	.	.	.	.
.	.	.	.	.	16r	.	16cc#\	.	16cc#\	.	.	.	.	.
.	.	.	.	.	16g\LL	.	16b\	.	16b\	.	.	.	.	.
8r	.	.	8r	.	16f#\	.	16a\	.	16a\	.	8r	.	8r	.
.	.	.	.	.	16e\JJ	.	16g\JJ	.	16g\JJ	.	.	.	.	.
=109	=109	=109	=109	=109	=109	=109	=109	=109	=109	=109	=109	=109	=109	=109
!	!	!	!	!	!	!	!	!	!	!	!LO:TX:a:t=26.	!	!	!
4D/	.	.	4D/	.	8d\	.	16f#/LL	.	16f#/LL	.	1.r	.	4d/	.
.	.	.	.	.	.	.	16b/	.	16b/	.	.	.	.	.
.	.	.	.	.	16r	.	16a/	.	16a/	.	.	.	.	.
.	.	.	.	.	16b\LL	.	16g/	.	16g/	.	.	.	.	.
8r	.	.	8r	.	16a\	.	16f#/	.	16f#/	.	.	.	8r	.
.	.	.	.	.	16g\JJ	.	16e/JJ	.	16e/JJ	.	.	.	.	.
=110	=110	=110	=110	=110	=110	=110	=110	=110	=110	=110	=110	=110	=110	=110
!	!	!	!	!	!	!	!	!	!	!	!	!	!LO:TX:a:t=2.	!
16r	.	.	16r	.	16f#\LL	.	8d/L	.	8d/	.	.	.	2.r	.
16d|\LL	.	.	16d'\LL	.	16dd\	.	.	.	.	.	.	.	.	.
16c#|\	.	.	16c#'\	.	16cc#\	.	8ff# 8a 8d/	.	8ff#L 8a 8d/	.	.	.	.	.
16B|\	.	.	16B'\	.	16b\	.	.	.	.	.	.	.	.	.
16A|\	.	.	16A'\	.	16a\	.	8ff#J 8a 8d/	.	8ff#J 8a 8d/	.	.	.	.	.
16G|\JJ	.	.	16G'\JJ	.	16g\JJ	.	.	.	.	.	.	.	.	.
=111	=111	=111	=111	=111	=111	=111	=111	=111	=111	=111	=111	=111	=111	=111
16F#\LL	6	.	16F#\LL	.	16f#\LL	.	8ff#L 8a 8d/	.	8ff#L 8a 8d/	.	.	.	.	.
16B|\	.	.	16B\	.	16b\	.	.	.	.	.	.	.	.	.
16A|\	.	.	16A\	.	16a\	.	8ff# 8a 8d/	.	8ff# 8a 8d/	.	.	.	.	.
16G|\	.	.	16G\	.	16g\	.	.	.	.	.	.	.	.	.
16F#|\	.	.	16F#\	.	16f#\	.	8ff#J 8a 8d/	.	8ff#J 8a 8d/	.	.	.	.	.
16E|\JJ	.	.	16E\JJ	.	16e\JJ	.	.	.	.	.	.	.	.	.
!	!	!	!LO:LB:g=original	!	!	!	!	!	!	!	!	!	!	!
=112	=112	=112	=112	=112	=112	=112	=112	=112	=112	=112	=112	=112	=112	=112
!	!	!	!	!	!	!	!	!	!	!	!	!	!LO:TX:a:i:t=Solo	!
4D\	.	.	4D\	.	4d\	.	4ff# 4a 4d/	.	4ff# 4a 4d/	.	.	.	8r	.
.	.	.	.	.	.	.	.	.	.	.	.	.	8dd\L	.
8r	.	.	8r	.	8r	.	8r	.	8r	.	.	.	8ff#\J	.
!	!	!	!	!	!	!	!	!	!LO:LB:g=original	!	!	!	!	!
=113	=113	=113	=113	=113	=113	=113	=113	=113	=113	=113	=113	=113	=113	=113
!LO:TX:a:t=7.	!	!	!LO:TX:a:t=7.	!	!LO:TX:a:t=8.	!	!	!	!	!LO:DY:b:t=pia&colon;	!	!	!	!
1.r	.	.	1.r	.	1.r	.	8r	.	8r	p	1.r	.	8aa\L	.
!	!	!	!	!	!	!	!	!LO:DY:b:t=po&colon;	!	!	!	!	!	!
.	.	.	.	.	.	.	8f#/L	p	8f#/L	.	.	.	8dd\	.
.	.	.	.	.	.	.	8d/J	.	8d/J	.	.	.	8fff#\J	.
=114	=114	=114	=114	=114	=114	=114	=114	=114	=114	=114	=114	=114	=114	=114
.	.	.	.	.	.	.	8c#/L	.	8c#/L	.	.	.	16eee\LL	.
.	.	.	.	.	.	.	.	.	.	.	.	.	16aa\JJ	.
.	.	.	.	.	.	.	.	.	.	.	.	.	8qqaa/	.
.	.	.	.	.	.	.	8B/	.	8B/	.	.	.	4gg\	.
.	.	.	.	.	.	.	8A/J	.	8A/J	.	.	.	.	.
!	!	!	!	!	!	!	!	!	!	!	!	!	!LO:LB:g=original	!
=115	=115	=115	=115	=115	=115	=115	=115	=115	=115	=115	=115	=115	=115	=115
.	.	.	.	.	.	.	8d/L	.	8d/L	.	.	.	8aa\L	.
.	.	.	.	.	.	.	8f#/	.	8f#/	.	.	.	8dd\	.
.	.	.	.	.	.	.	8d/J	.	8d/J	.	.	.	8fff#\J	.
=116	=116	=116	=116	=116	=116	=116	=116	=116	=116	=116	=116	=116	=116	=116
*	*	*	*	*	*	*	*	*	*	*	*	*	*tuplet	*
!	!	!	!	!	!	!	!	!	!	!	!	!	!LO:TUP:a	!
.	.	.	.	.	.	.	8c#/L	.	8c#/L	.	.	.	24eee\LL	.
.	.	.	.	.	.	.	.	.	.	.	.	.	24ccc#\	.
.	.	.	.	.	.	.	.	.	.	.	.	.	24aa\JJ	.
.	.	.	.	.	.	.	.	.	.	.	.	.	8qqaa/	.
.	.	.	.	.	.	.	8B/	.	8B/	.	.	.	4gg\	.
.	.	.	.	.	.	.	8A/J	.	8A/J	.	.	.	.	.
=117	=117	=117	=117	=117	=117	=117	=117	=117	=117	=117	=117	=117	=117	=117
2.r	.	.	2.r	.	1.r	.	8d/L	.	8d/L	.	1.r	.	16ff#\LL	.
.	.	.	.	.	.	.	.	.	.	.	.	.	16dd\JJ	.
.	.	.	.	.	.	.	.	.	.	.	.	.	8qqdd/	.
.	.	.	.	.	.	.	8c#/	.	8c#/	.	.	.	4gg\	.
.	.	.	.	.	.	.	8A/J	.	8A/J	.	.	.	.	.
=118	=118	=118	=118	=118	=118	=118	=118	=118	=118	=118	=118	=118	=118	=118
!	!	!	!	!	!	!	!	!	!	!	!	!	!LO:TUP:a	!
.	.	.	.	.	.	.	8d/L	.	8d/L	.	.	.	24ff#\LL	.
.	.	.	.	.	.	.	.	.	.	.	.	.	24gg\	.
.	.	.	.	.	.	.	.	.	.	.	.	.	24aa\JJ	.
.	.	.	.	.	.	.	.	.	.	.	.	.	8qqaa/	.
.	.	.	.	.	.	.	8c#/	.	8c#/	.	.	.	4gg\	.
.	.	.	.	.	.	.	8A/J	.	8A/J	.	.	.	.	.
=119	=119	=119	=119	=119	=119	=119	=119	=119	=119	=119	=119	=119	=119	=119
!	!	!	!	!	!	!	!	!	!	!	!	!	!LO:TUP:a	!
4.r	.	.	4.r	.	.	.	8d/L	.	8d/L	.	.	.	24ff#\LL	.
.	.	.	.	.	.	.	.	.	.	.	.	.	24ee\	.
.	.	.	.	.	.	.	.	.	.	.	.	.	24dd\JJ	.
!	!	!	!	!	!	!	!	!	!	!	!	!	!LO:TUP:a	!
.	.	.	.	.	.	.	8f#/	.	8f#/	.	.	.	24aa\LL	.
.	.	.	.	.	.	.	.	.	.	.	.	.	24gg\	.
.	.	.	.	.	.	.	.	.	.	.	.	.	24ff#\JJ	.
.	.	.	.	.	.	.	8d/J	.	8d/J	.	.	.	16ddd\LL	.
.	.	.	.	.	.	.	.	.	.	.	.	.	16ff#\JJ	.
!	!	!	!	!	!	!	!LO:LB:g=original	!	!	!	!	!	!	!
=120	=120	=120	=120	=120	=120	=120	=120	=120	=120	=120	=120	=120	=120	=120
.	.	.	.	.	.	.	.	.	.	.	.	.	8qqgg/	.
8r	.	.	8r	.	.	.	8a/L	.	8a/L	.	.	.	8ff#\L	.
8AA/L	.	.	8AA/L	.	.	.	8A/J	.	8A/J	.	.	.	8ee\J	.
8C#/J	.	.	8C#/J	.	.	.	8r	.	8r	.	.	.	8r	.
!	!	!	!	!	!LO:LB:g=original	!	!	!	!	!	!	!	!	!
=121	=121	=121	=121	=121	=121	=121	=121	=121	=121	=121	=121	=121	=121	=121
!	!	!	!	!	!	!	!	!LO:DY:b:t=f&colon;	!	!LO:DY:b:t=for	!	!	!LO:TX:a:t=1	!
8E\L	#	.	8E\L	.	8b\L	.	4.ee\	f	4.gg#X\	f	1.r	.	4.r	.
8E\	.	.	8E\	.	8b\	.	.	.	.	.	.	.	.	.
8E\J	.	.	8E\J	.	8b\J	.	.	.	.	.	.	.	.	.
=122	=122	=122	=122	=122	=122	=122	=122	=122	=122	=122	=122	=122	=122	=122
!	!	!LO:DY:b:t=piano	!	!LO:DY:b:t=piano	!	!LO:DY:b:t=pia	!	!LO:DY:b:t=p&colon;	!	!LO:DY:b:t=p&colon;	!	!	!	!
8C#/L	6 -5	p	8C#/L	p	8A/L	p	4.e/	p	4.gn/	p	.	.	8r	.
8C#/	.	.	8C#/	.	8A/	.	.	.	.	.	.	.	8a/L	.
8C#/J	.	.	8C#/J	.	8A/J	.	.	.	.	.	.	.	8a/J	.
=123	=123	=123	=123	=123	=123	=123	=123	=123	=123	=123	=123	=123	=123	=123
!	!	!LO:DY:b:t=forte	!	!LO:DY:b:t=for&colon;	!	!LO:DY:b:t=forte	!	!LO:DY:b:t=f&colon;	!	!LO:DY:b:t=f&colon;	!	!	!	!
8D/L	.	f	8D/L	f	8a\L	f	4.dd\	f	4.ff#\	f	.	.	4a/	.
8D/	.	.	8D/	.	8a\	.	.	.	.	.	.	.	.	.
8D/J	.	.	8D/J	.	8a\J	.	.	.	.	.	.	.	8r	.
!LO:LB:g=original	!	!	!	!	!	!	!	!	!	!	!	!	!LO:LB:g=original	!
=124	=124	=124	=124	=124	=124	=124	=124	=124	=124	=124	=124	=124	=124	=124
!	!	!LO:DY:b:t=piano	!	!LO:DY:b:t=piano	!	!LO:DY:b:t=po&colon;	!	!LO:DY:b:t=p&colon;	!	!LO:DY:b:t=p&colon;	!	!	!LO:TX:a:t=1	!
8GG#X/L	-7r 5	p	8GG#X/L	p	8B/L	p	4.d/	p	4.fn/	p	.	.	4.r	.
8GG#/	.	.	8GG#/	.	8B/	.	.	.	.	.	.	.	.	.
8GG#/J	.	.	8GG#/J	.	8B/J	.	.	.	.	.	.	.	.	.
=125	=125	=125	=125	=125	=125	=125	=125	=125	=125	=125	=125	=125	=125	=125
!	!	!LO:DY:b:t=forte	!LO:TX:a:t=a	!LO:DY:b:rj:t=for&colon;	!	!LO:DY:b:t=for&colon;	!LO:TUP:a:problem=klamra łukowa	!	!LO:TUP:a:problem=klamra łukowa	!	!	!	!	!
8AA/L	5 3	f	8AA/L	f	8A/L	f	24cc#\LL	.	24ee\LL	.	1.r	.	8r	.
!	!	!	!	!	!	!	!	!LO:DY:b:t=forte	!	!	!	!	!	!
.	.	.	.	.	.	.	24dd\	f	24ff#\	.	.	.	.	.
.	.	.	.	.	.	.	24ee\JJ	.	24gg\JJ	.	.	.	.	.
!	!	!	!LO:TX:a:t=a	!	!	!	!LO:TUP:a:problem=klamra łukowa	!	!LO:TUP:a:problem=klamra łukowa	!	!	!	!	!
8AA/	6 4	.	8AA/	.	8A/	.	24dd\LL	.	24ff#\LL	.	.	.	8a/L	.
.	.	.	.	.	.	.	24ee\	.	24gg\	.	.	.	.	.
.	.	.	.	.	.	.	24ff#\JJ	.	24aa\JJ	.	.	.	.	.
!	!	!	!LO:TX:a:t=a	!	!	!	!	!	!	!	!	!	!	!
8AA/J	7 3	.	8AA/J	.	8A/J	.	24ee\LL	.	24cc#\LL	.	.	.	8a/J	.
.	.	.	.	.	.	.	24ff#\	.	24dd\	.	.	.	.	.
.	.	.	.	.	.	.	24gg\JJ	.	24ee\JJ	.	.	.	.	.
=126	=126	=126	=126	=126	=126	=126	=126	=126	=126	=126	=126	=126	=126	=126
8AA/L	6 4	.	8AA/L	.	8A/L	.	24ff#\LL	.	24dd\LL	.	.	.	4a/	.
.	.	.	.	.	.	.	24gg\	.	24ee\	.	.	.	.	.
.	.	.	.	.	.	.	24aa\JJ	.	24ff#\JJ	.	.	.	.	.
8AA/	5 3	.	8AA/	.	8A/	.	24cc#\LL	.	24e/LL	.	.	.	.	.
.	.	.	.	.	.	.	24dd\	.	24f#/	.	.	.	.	.
.	.	.	.	.	.	.	24ee\JJ	.	24g/JJ	.	.	.	.	.
8AA/J	6 4	.	8AA/J	.	8A/J	.	24dd\LL	.	24f#/LL	.	.	.	8r	.
.	.	.	.	.	.	.	24ee\	.	24g/	.	.	.	.	.
.	.	.	.	.	.	.	24ff#\JJ	.	24a/JJ	.	.	.	.	.
!	!	!	!LO:LB:g=original	!	!	!	!	!	!LO:LB:g=original	!	!	!	!	!
=127	=127	=127	=127	=127	=127	=127	=127	=127	=127	=127	=127	=127	=127	=127
!LO:TX:t=P:problem=mixed beam	!	!	!LO:TX:t=P:problem=mixed beam	!	!	!	!	!	!	!	!	!	!	!
8G\L	6	.	8G\L	.	8b\L	.	24ee\LL	.	24b\LL	.	.	.	8ee\	.
.	.	.	.	.	.	.	24b\	.	24gg\	.	.	.	.	.
.	.	.	.	.	.	.	24g\JJ	.	24ee\JJ	.	.	.	.	.
.	.	.	.	.	.	.	8qqf#/	.	8qqdd/	.	.	.	.	.
8A\	.	.	8A\	.	8a\	.	4eT/	.	4cc#t\	.	.	.	4eeT\	.
8AA/J	.	.	8AA/J	.	8a\J	.	.	.	.	.	.	.	.	.
=128	=128	=128	=128	=128	=128	=128	=128	=128	=128	=128	=128	=128	=128	=128
!	!	!	!	!	!	!	!	!	!	!	!	!	!LO:TX:a:i:t=Solo	!
!	!	!	!	!	!	!	!	!	!	!	!	!	!LO:TUP:a	!
4D/	.	.	4D/	.	4a\	.	4f#/	.	4dd\	.	.	.	24dd\LL	.
.	.	.	.	.	.	.	.	.	.	.	.	.	24a\	.
.	.	.	.	.	.	.	.	.	.	.	.	.	24dd\JJ	.
!	!	!	!	!	!	!	!	!	!	!	!	!	!LO:TUP:a	!
.	.	.	.	.	.	.	.	.	.	.	.	.	24ff#\LL	.
.	.	.	.	.	.	.	.	.	.	.	.	.	24dd\	.
.	.	.	.	.	.	.	.	.	.	.	.	.	24ff#\JJ	.
!	!	!	!	!	!	!	!	!	!	!	!	!	!LO:TUP:a	!
8r	.	.	8r	.	8r	.	8r	.	8r	.	.	.	24aa\LL	.
.	.	.	.	.	.	.	.	.	.	.	.	.	24ff#\	.
.	.	.	.	.	.	.	.	.	.	.	.	.	24aa\JJ	.
=129	=129	=129	=129	=129	=129	=129	=129	=129	=129	=129	=129	=129	=129	=129
!LO:TX:a:t=2.	!	!	!LO:TX:a:t=2.	!	!LO:TX:a:t=I	!	!	!	!	!LO:DY:b:t=po&colon;	!	!	!	!
2.r	.	.	2.r	.	4.r	.	24d/LL	.	24f#/LL	p	1.r	.	[4.ddd\	.
!	!	!	!	!	!	!	!	!LO:DY:b:t=piano	!	!	!	!	!	!
.	.	.	.	.	.	.	24f#/	p	24d/	.	.	.	.	.
.	.	.	.	.	.	.	24d/JJ	.	24f#/JJ	.	.	.	.	.
.	.	.	.	.	.	.	24e/LL	.	24g/LL	.	.	.	.	.
.	.	.	.	.	.	.	24g/	.	24e/	.	.	.	.	.
.	.	.	.	.	.	.	24e/JJ	.	24g/JJ	.	.	.	.	.
.	.	.	.	.	.	.	24f#/LL	.	24a/LL	.	.	.	.	.
.	.	.	.	.	.	.	24a/	.	24f#/	.	.	.	.	.
.	.	.	.	.	.	.	24f#/JJ	.	24a/JJ	.	.	.	.	.
=130	=130	=130	=130	=130	=130	=130	=130	=130	=130	=130	=130	=130	=130	=130
!	!	!	!	!	!LO:TX:t=P:problem=mixed beam	!	!	!	!	!	!	!	!	!
.	.	.	.	.	8g\L	.	8g/L	.	8b\L	.	.	.	8ddd\L]	.
.	.	.	.	.	8a\	.	8a/	.	8dd\	.	.	.	8ff#\	.
.	.	.	.	.	8A/J	.	8A/J	.	8cc#t\J	.	.	.	8eeT\J	.
!	!	!	!	!	!	!	!LO:LB:g=original	!	!	!	!	!	!	!
=131	=131	=131	=131	=131	=131	=131	=131	=131	=131	=131	=131	=131	=131	=131
!	!	!	!	!	!	!	!	!	!	!LO:DY:a:t=forte	!	!	!LO:TX:t=P:problem=mixed beam	!
4D/	.	.	4D/	.	4A/	.	8r	.	24d/LL	f	.	.	8dd\L	.
.	.	.	.	.	.	.	.	.	24A/	.	.	.	.	.
.	.	.	.	.	.	.	.	.	24d/JJ	.	.	.	.	.
.	.	.	.	.	.	.	24d/LL	.	24f#/LL	.	.	.	8d/	.
.	.	.	.	.	.	.	24A/	.	24d/	.	.	.	.	.
.	.	.	.	.	.	.	24d/JJ	.	24f#/JJ	.	.	.	.	.
8r	.	.	8r	.	8r	.	24f#/LL	.	24a/LL	.	.	.	8d/J	.
.	.	.	.	.	.	.	24d/	.	24f#/	.	.	.	.	.
.	.	.	.	.	.	.	24f#/JJ	.	24a/JJ	.	.	.	.	.
=132	=132	=132	=132	=132	=132	=132	=132	=132	=132	=132	=132	=132	=132	=132
4F#\	6	.	4F#\	.	4d\	.	24a/LL	.	24dd\LL	.	.	.	4d/	.
.	.	.	.	.	.	.	24f#/	.	24a\	.	.	.	.	.
.	.	.	.	.	.	.	24a/JJ	.	24dd\JJ	.	.	.	.	.
.	.	.	.	.	.	.	24dd\LL	.	24ff#\LL	.	.	.	.	.
.	.	.	.	.	.	.	24a\	.	24dd\	.	.	.	.	.
.	.	.	.	.	.	.	24dd\JJ	.	24ff#\JJ	.	.	.	.	.
8D\	.	.	8D\	.	8d\	.	24ff#\LL	.	24aa\LL	.	.	.	8r	.
.	.	.	.	.	.	.	24dd\	.	24ff#\	.	.	.	.	.
.	.	.	.	.	.	.	24ff#\JJ	.	24aa\JJ	.	.	.	.	.
=133	=133	=133	=133	=133	=133	=133	=133	=133	=133	=133	=133	=133	=133	=133
*	*	*	*	*	*	*	*	*	*tuplet	*	*	*	*	*
!LO:TX:t=P:problem=mixed beam	!	!	!LO:TX:t=P:problem=mixed beam	!	!	!	!LO:TUP:a:klamra łukowa	!	!	!	!	!	!	!
8G\L	6	.	8G\L	.	8b\L	.	24gg\LL	.	24bb\LL	.	2.r;	.	8gg\L	.
.	.	.	.	.	.	.	24ff#\	.	24aa\	.	.	.	.	.
.	.	.	.	.	.	.	24ee\JJ	.	24gg\JJ	.	.	.	.	.
8A\	6 4	.	8A\	.	8a\	.	8dd\L	.	8ff#\L	.	.	.	8ff#\	.
8AA/J	7 3	.	8AA/J	.	8a\J	.	8cc#t\J	.	8eeT\J	.	.	.	8eeT\J	.
!	!	!	!	!	!	!	!	!	!	!	!	!	!LO:LB:g=original	!
=134	=134	=134	=134	=134	=134	=134	=134	=134	=134	=134	=134	=134	=134	=134
8DD;</L	.	.	8DD;</L	.	4a;\	.	4dd;\	.	4dd;\	.	.	.	4ff#;\	.
8D/	.	.	8D/	.	.	.	.	.	.	.	.	.	.	.
8Cn/J	.	.	8Cn/J	.	8r	.	8r	.	8r	.	.	.	8r	.
!	!	!	!	!	!LO:LB:g=original	!	!	!	!	!	!	!	!	!
=135||	=135||	=135||	=135||	=135||	=135||	=135||	=135||	=135||	=135||	=135||	=135||	=135||	=135||	=135||
!	!	!LO:DY:b:t=piano	!	!LO:DY:b:t=piano	!LO:TX:a:t=2.	!	!LO:TX:a:t=I	!	!	!LO:DY:b:t=piano	!	!	!	!
8BB/L	#	p	8BB/L	p	2.r	.	4.r	.	4.b/	p	4.D#X/	At-	8r	.
!	!	!	!	!	!	!	!	!	!	!	!	!	!	!LO:DY:b:t=piano
8BB/	.	.	8BB/	.	.	.	.	.	.	.	.	.	8f#/L	p
8BB/J	.	.	8BB/J	.	.	.	.	.	.	.	.	.	8f#/J	.
=136	=136	=136	=136	=136	=136	=136	=136	=136	=136	=136	=136	=136	=136	=136
!	!	!	!	!	!	!	!	!LO:DY:b:t=pia	!	!	!	!	!	!
8BB/L	#	.	8BB/L	.	.	.	4.b/	p	4.dd#X\	.	4.F#\	-qve	8f#/L	.
8BB/	.	.	8BB/	.	.	.	.	.	.	.	.	.	8f#/	.
8BB/J	.	.	8BB/J	.	.	.	.	.	.	.	.	.	8f#/J	.
!	!	!	!	!	!	!	!	!	!LO:LB:g=original	!	!	!	!	!
=137	=137	=137	=137	=137	=137	=137	=137	=137	=137	=137	=137	=137	=137	=137
!	!	!	!	!	!	!LO:DY:b:t=pia	!	!	!	!	!	!	!	!
8BB/L	7 #	.	8BB/L	.	4.b\	p	4.dd#X\	.	4.ff#\	.	4A\	Sem-	4f#/	.
8BB/	.	.	8BB/	.	.	.	.	.	.	.	.	.	.	.
8BB/J	.	.	8BB/J	.	.	.	.	.	.	.	8A\	-per	8r	.
!	!	!	!	!	!	!	!	!	!	!	!LO:LB:g=original	!	!	!
=138	=138	=138	=138	=138	=138	=138	=138	=138	=138	=138	=138	=138	=138	=138
!	!	!	!	!	!LO:TX:t=P:problem=mixed beam	!	!	!	!	!	!	!	!LO:TX:a:t=1	!
8.E\L	.	.	8.E\L	.	8b\L	.	(16ee\LL	.	(16gg\LL	.	(16G\LL	Vir-	4.r	.
.	.	.	.	.	.	.	16ff#\J	.	16aa\J	.	16F#\JJ)	.	.	.
.	.	.	.	.	8B/J	.	8aa\J)	.	8bb\J)	.	8E\	-go	.	.
16D\L	.	.	16D\L	.	.	.	.	.	.	.	.	.	.	.
16C#X\	.	.	16C#X\	.	8r	.	8r	.	8r	.	8r	.	.	.
16BB\JJ	.	.	16BB\JJ	.	.	.	.	.	.	.	.	.	.	.
!	!	!	!LO:LB:g=original	!	!	!	!	!	!	!	!	!	!	!
=139	=139	=139	=139	=139	=139	=139	=139	=139	=139	=139	=139	=139	=139	=139
!	!	!	!	!	!LO:TX:a:t=2.	!	!LO:TX:a:t=I	!	!	!	!	!	!	!
8AA/L	.	.	8AA/L	.	2.r	.	4.r	.	4.a/	.	4.C#/	At-	8r	.
8AA/	.	.	8AA/	.	.	.	.	.	.	.	.	.	8a/L	.
8AA/J	.	.	8AA/J	.	.	.	.	.	.	.	.	.	8a/J	.
=140	=140	=140	=140	=140	=140	=140	=140	=140	=140	=140	=140	=140	=140	=140
8AA/L	.	.	8AA/L	.	.	.	4.a/	.	4.cc#\	.	4.E\	-qve	8a/L	.
8AA/	.	.	8AA/	.	.	.	.	.	.	.	.	.	8a/	.
8AA/J	.	.	8AA/J	.	.	.	.	.	.	.	.	.	8a/J	.
!LO:LB:g=original	!	!	!	!	!	!	!	!	!	!	!	!	!	!
=141	=141	=141	=141	=141	=141	=141	=141	=141	=141	=141	=141	=141	=141	=141
8AA/L	7	.	8AA/L	.	4.a\	.	4.cc#\	.	4.ee\	.	4G\	Sem-	8a/L	.
8AA/	.	.	8AA/	.	.	.	.	.	.	.	.	.	8a/	.
8AA/J	.	.	8AA/J	.	.	.	.	.	.	.	8G\	-per	8a/J	.
=142	=142	=142	=142	=142	=142	=142	=142	=142	=142	=142	=142	=142	=142	=142
!	!	!	!	!	!LO:TX:t=P:problem=mixed beam	!	!	!	!	!	!	!	!	!
8DD/L	.	.	8DD/L	.	8a\L	.	(16dd\LL	.	(16ff#\LL	.	16F#\LL	Vir-	4a/	.
.	.	.	.	.	.	.	16ee\J	.	16gg\J	.	16E\JJ	.	.	.
8D/	.	.	8D/	.	8A/J	.	8ff#\J)	.	8aa\J)	.	8D/	-go	.	.
8Cn/J	.	.	8Cn/J	.	8r	.	8r	.	8r	.	8r	.	8r	.
=143	=143	=143	=143	=143	=143	=143	=143	=143	=143	=143	=143	=143	=143	=143
!	!	!	!	!	!	!	!	!	!	!	!	!	!LO:TX:a:t=3.	!
4BB/	6	.	4BB/	.	4B/	.	4dd\	.	8r	.	8r	.	2.r	.
.	.	.	.	.	.	.	.	.	8gg\L	.	8G\	fe-	.	.
8r	.	.	8r	.	8r	.	8r	.	8dd\J	.	8D/	-lix	.	.
=144	=144	=144	=144	=144	=144	=144	=144	=144	=144	=144	=144	=144	=144	=144
4Cn/	5 3	.	4Cn/	.	8g\L	.	(8ccn\L	.	(8ee\L	.	(8E\L	Coe-	.	.
.	4 2	.	.	.	8a\	.	8dd\)	.	8ff#\)	.	8F#\J)	.	.	.
8BB/	6 4	.	8BB/	.	8g\J	.	8ee|\J	.	8gg|\J	.	8G\	-li	.	.
=145	=145	=145	=145	=145	=145	=145	=145	=145	=145	=145	=145	=145	=145	=145
8AA/L	6 -	.	8AA/L	.	8cn\L	.	8ff#\	.	8cccn\	.	8cn\	por-	4.r	.
.	.	.	.	.	.	.	.	.	.	.	8qqc/	.	.	.
8BB/	6	.	8BB/	.	8d\	.	4gg\	.	4bb\	.	4B\	.	.	.
8C#X/J	7 5	.	8C#X/J	.	8e\J	.	.	.	.	.	.	.	.	.
!	!	!	!	!	!	!	!LO:LB:g=original	!	!	!	!LO:LB:g=original	!	!	!
=146	=146	=146	=146	=146	=146	=146	=146	=146	=146	=146	=146	=146	=146	=146
.	.	.	.	.	.	.	.	.	.	.	8qqB/	.	.	.
!	!	!	!	!	!LO:TX:t=P:problem=mixed beam	!	!	!	!	!	!	!	!	!
8D\L	.	.	8D~\L	.	8A/L	.	8ff#\L	.	8aa\L	.	4A\	-ta	8r	.
8d|\	.	.	8d~\	.	8dd\	.	8dd\	.	8dd\	.	.	.	8d/L	.
8cn|\J	.	.	8cn~\J	.	8ccn\J	.	8ccn\J	.	8ccn\J	.	8r	.	8d/J	.
!	!	!	!	!	!	!	!	!	!	!	!	!	!LO:LB:g=original	!
=147	=147	=147	=147	=147	=147	=147	=147	=147	=147	=147	=147	=147	=147	=147
8B\L	6	.	8B~\L	.	8b\L	.	8b|/L	.	8b/L	.	4.G\	A-	4d/	.
8A|\	.	.	8A~\	.	8a\	.	8a|/	.	8a/	.	.	.	.	.
8G|\J	.	.	8G~\J	.	8g\J	.	8g|/J	.	8g/J	.	.	.	8r	.
=148	=148	=148	=148	=148	=148	=148	=148	=148	=148	=148	=148	=148	=148	=148
8F#\L	6	.	8F#~\L	.	8f#\L	.	8f#|/L	.	8f#/L	.	4.AT\	.	4d/	.
8E|\	.	.	8E~\	.	8e\	.	8e|/	.	8e/	.	.	.	.	.
8D|\J	.	.	8D~\J	.	8d\J	.	8d|/J	.	8d/J	.	.	.	8r	.
=149	=149	=149	=149	=149	=149	=149	=149	=149	=149	=149	=149	=149	=149	=149
8G|\L	.	.	8G~\L	.	8G/L	.	8g|/L	.	8g/L	.	(8B\L	.	4d/	.
8A|\	.	.	8A~\	.	8A/	.	8a|/	.	8a/	.	8A\J)	.	.	.
8B|\J	.	.	8B~\J	.	8B/J	.	8b|/J	.	8b/J	.	8G\	-ve	8r	.
!	!	!	!LO:LB:g=original	!	!	!	!	!	!	!	!	!	!	!
=150	=150	=150	=150	=150	=150	=150	=150	=150	=150	=150	=150	=150	=150	=150
!LO:TX:t=P:problem=mixed beam	!	!	!LO:TX:t=P:problem=mixed beam	!	!LO:TX:t=P:problem=mixed beam	!	!LO:TX:t=P:problem=mixed beam	!	!LO:TX:t=P:problem=mixed beam	!	!	!	!LO:TX:a:t=7.	!
8cn\L	.	.	8cn\L	.	8cn\L	.	8ccn\L	.	8ccn\L	.	(16e\LL	a-	1.r	.
.	.	.	.	.	.	.	.	.	.	.	16cn\JJ)	.	.	.
.	.	.	.	.	.	.	.	.	.	.	8qqB/	.	.	.
8d\	.	.	8d\	.	8d\	.	8dd\	.	8dd\	.	4AT\	.	.	.
8D/J	.	.	8D/J	.	8D/J	.	8d/J	.	8d/J	.	.	.	.	.
!	!	!	!	!	!LO:LB:g=original	!	!	!	!	!	!	!	!	!
=151	=151	=151	=151	=151	=151	=151	=151	=151	=151	=151	=151	=151	=151	=151
8r	.	.	8r	.	8r	.	8G/	.	8G/	.	8G\	-ve	.	.
8E\L	.	.	8E\L	.	8e\L	.	[4gg\	.	[4bb\	.	[4G\	at-	.	.
8D\J	6 4 2	.	8D\J	.	8e\J	.	.	.	.	.	.	.	.	.
!	!	!	!	!	!	!	!	!	!LO:LB:g=original	!	!	!	!	!
=152	=152	=152	=152	=152	=152	=152	=152	=152	=152	=152	=152	=152	=152	=152
4C#X/	7 5	.	4C#X/	.	8e\	.	8gg\L]	.	8bb\L]	.	16G\LL]	.	.	.
.	.	.	.	.	.	.	.	.	.	.	16B\	.	.	.
.	6 4	.	.	.	4c#X/	.	8ff#\	.	8aa\	.	16A\	.	.	.
.	.	.	.	.	.	.	.	.	.	.	16G\	.	.	.
8AA/	7 #	.	8AA/	.	.	.	8ee\J	.	8gg\J	.	16F#\	.	.	.
.	.	.	.	.	.	.	.	.	.	.	16E\JJ	.	.	.
=153	=153	=153	=153	=153	=153	=153	=153	=153	=153	=153	=153	=153	=153	=153
!	!	!	!	!	!LO:TX:t=P:problem=mixed beam	!	!	!	!	!	!	!	!	!
8D\L	.	.	8D\L	.	8A/L	.	8dd\	.	16ff#\LL	.	(16F#\LL	.	.	.
.	.	.	.	.	.	.	.	.	16ee\JJ	.	16G\JJ)	.	.	.
8F#\	6	.	8F#\	.	8f#\	.	[4aa\	.	8dd\L	.	[4A\	.	.	.
8E\J	n6 2	.	8E\J	.	8f#\J	.	.	.	[8cccn\J	.	.	.	.	.
=154	=154	=154	=154	=154	=154	=154	=154	=154	=154	=154	=154	=154	=154	=154
4D#X/	7 5	.	4D#X/	.	8f#\	.	8aa\L]	.	8ccc\L]	.	16A\LL]	.	2.r	.
.	.	.	.	.	.	.	.	.	.	.	16cn\	.	.	.
.	n6 4	.	.	.	4d#X\	.	8gg\	.	8bb\	.	16B\	.	.	.
.	.	.	.	.	.	.	.	.	.	.	16A\	.	.	.
8BB/	7 #	.	8BB/	.	.	.	8ff#\J	.	8aa\J	.	16G\	.	.	.
.	.	.	.	.	.	.	.	.	.	.	16F#\JJ	.	.	.
!LO:LB:g=original	!	!	!	!	!	!	!	!	!	!	!LO:LB:g=original	!	!	!
=155	=155	=155	=155	=155	=155	=155	=155	=155	=155	=155	=155	=155	=155	=155
!	!	!	!	!	!LO:TX:t=P:problem=mixed beam	!	!	!	!	!	!	!	!	!
8E\L	.	.	8E\L	.	8B/L	.	8ee\	.	16gg\LL	.	(16G\LL	.	.	.
.	.	.	.	.	.	.	.	.	16ff#\JJ	.	16A\JJ)	.	.	.
8G\	6	.	8G\	.	8g\	.	[4bb\	.	8ee\L	.	[4B\	.	.	.
8F#\J	6 2	.	8F#\J	.	8g\J	.	.	.	[8ddd\J	.	.	.	.	.
=156	=156	=156	=156	=156	=156	=156	=156	=156	=156	=156	=156	=156	=156	=156
4E#X\	7 5	.	4E#X\	.	8g#X\	.	8bb\L]	.	8ddd\L]	.	16B\LL]	.	4.r	.
.	.	.	.	.	.	.	.	.	.	.	16d\	.	.	.
.	6\ +4r	.	.	.	4e#X\	.	8aa#X\	.	8ccc#X\	.	16c#X\	.	.	.
.	.	.	.	.	.	.	.	.	.	.	16B\	.	.	.
8C#/	7 #	.	8C#/	.	.	.	8gg#X\J	.	8bb\J	.	16A#X\	.	.	.
.	.	.	.	.	.	.	.	.	.	.	16G#X\JJ	.	.	.
=157	=157	=157	=157	=157	=157	=157	=157	=157	=157	=157	=157	=157	=157	=157
.	.	.	.	.	.	.	.	.	8qqbb/	.	.	.	.	.
4F#;\	.	.	4F#;\	.	4c#;</	.	4ff#;\	.	4aa#X;\	.	4F#;\	-qve	4f#;</	.
8r	.	.	8r	.	8r	.	8r	.	8r	.	8r	.	8r	.
=158	=158	=158	=158	=158	=158	=158	=158	=158	=158	=158	=158	=158	=158	=158
4AA#X/	6	.	4AA#X/	.	8r	.	8r	.	8r	.	8r	.	[4.ff#\	.
.	.	.	.	.	8c#/L	.	8f#/L	.	8cc#\L	.	8c#\	Sem-	.	.
8BB/	.	.	8BB/	.	8B/J	.	8f#/J	.	8dd\J	.	8d\	-per	.	.
!	!	!	!LO:LB:g=original	!	!	!	!	!	!	!	!	!	!	!
=159	=159	=159	=159	=159	=159	=159	=159	=159	=159	=159	=159	=159	=159	=159
8r	.	.	8r	.	8e\L	.	8f#/L	.	4a#X/	.	4A#X\	Vir-	4.ff#\_	.
8C#/L	6\	.	8C#/L	.	8e\	.	8f#/	.	.	.	.	.	.	.
8D/J	6	.	8D/J	.	8d\J	.	8f#/J	.	8b/	.	8B\	-go	.	.
!	!	!	!	!	!	!	!LO:LB:g=original	!	!	!	!	!	!	!
=160	=160	=160	=160	=160	=160	=160	=160	=160	=160	=160	=160	=160	=160	=160
4AA#X/	6	.	4AA#X/	.	8r	.	8r	.	8r	.	8r	.	4.ff#t\_	.
.	.	.	.	.	8c#/L	.	8f#/L	.	8cc#\L	.	8c#\	Sem-	.	.
8BB/	.	.	8BB/	.	8B/J	.	8f#/J	.	8dd\J	.	8d\	-per	.	.
!	!	!	!	!	!LO:LB:g=original	!	!	!	!	!	!	!	!	!
=161	=161	=161	=161	=161	=161	=161	=161	=161	=161	=161	=161	=161	=161	=161
.	.	.	.	.	.	.	.	.	.	.	8qqB/	.	.	.
8r	.	.	8r	.	8e\L	.	8f#/L	.	4a#X/	.	4A#X\	Vir-	4.ff#\]	.
8C#/L	6\	.	8C#/L	.	8e\	.	8f#/	.	.	.	.	.	.	.
8D/J	6	.	8D/J	.	8d\J	.	8f#/J	.	8b/	.	8B\	-go	.	.
=162	=162	=162	=162	=162	=162	=162	=162	=162	=162	=162	=162	=162	=162	=162
!	!	!	!	!	!	!	!	!	!	!	!	!	!LO:TX:a:t=9.	!
4.AA#X/	7 5	.	4.AA#X/	.	4.c#/	.	4.ee\	.	4.gg\	.	4G\	fe-	1.r	.
.	.	.	.	.	.	.	.	.	.	.	8G\	-lix	.	.
!	!	!	!	!	!	!	!	!	!	!	!LO:LB:g=original	!	!	!
=163	=163	=163	=163	=163	=163	=163	=163	=163	=163	=163	=163	=163	=163	=163
8BB/L	.	.	8BB/L	.	8d\L	.	8dd\L	.	(8ff#\L	.	(8F#\L	Coe-	.	.
8C#/	6\	.	8C#/	.	8e\	.	8cc#\	.	8ee\)	.	8A#X\J)	.	.	.
8D/J	6	.	8D/J	.	8f#\J	.	8b\J	.	8dd|\J	.	8B\	-li	.	.
=164	=164	=164	=164	=164	=164	=164	=164	=164	=164	=164	=164	=164	=164	=164
!LO:TX:t=P:problem=mixed beam	!	!	!LO:TX:t=P:problem=mixed beam	!	!	!	!	!	!	!	!	!	!	!
8E\L	6	.	8E\L	.	8e\L	.	8g#X/	.	8cc#\	.	8c#\	por-	.	.
.	.	.	.	.	.	.	.	.	.	.	8qqB/	.	.	.
8F#\	#	.	8F#\	.	8c#\	.	4a#Xt/	.	4cc#t\	.	4A#Xt\	.	.	.
8FF#/J	.	.	8FF#/J	.	8f#\J	.	.	.	.	.	.	.	.	.
!	!	!	!	!	!	!	!	!	!LO:LB:g=original	!	!	!	!	!
=165	=165	=165	=165	=165	=165	=165	=165	=165	=165	=165	=165	=165	=165	=165
!	!	!	!	!	!	!	!	!	!LO:TX:t=P:problem=mixed beam	!	!	!	!	!
8r	.	.	8r	.	8r	.	16r	.	16g|</LL	.	8B\	-ta	.	.
.	.	.	.	.	.	.	16dd\LL	.	16bb\	.	.	.	.	.
8G\L	5	.	8G\L	.	8g\L	.	(16cc#\	.	(16aa#X\	.	8G\	at-	.	.
.	.	.	.	.	.	.	16dd\	.	16bb\	.	.	.	.	.
8G\J	.	.	8G\J	.	8g\J	.	16cc#\	.	16aa#\	.	8G\	-qve	.	.
.	.	.	.	.	.	.	16dd\JJ)	.	16bb\JJ)	.	.	.	.	.
=166	=166	=166	=166	=166	=166	=166	=166	=166	=166	=166	=166	=166	=166	=166
!	!	!	!	!	!	!	!	!	!LO:TX:t=P:problem=mixed beam	!	!	!	!	!
8r	.	.	8r	.	8r	.	16r	.	16f#|</LL	.	4F#\	Sem-	1.r	.
.	.	.	.	.	.	.	16dd\LL	.	16bb\	.	.	.	.	.
8F#\L	4 2	.	8F#\L	.	8g\L	.	(16cc#\	.	(16aa#X\	.	.	.	.	.
.	.	.	.	.	.	.	16dd\	.	16bb\	.	.	.	.	.
8F#\J	.	.	8F#\J	.	8g\J	.	16cc#\	.	16aa#\	.	8F#\	-per	.	.
.	.	.	.	.	.	.	16dd\JJ)	.	16bb\JJ)	.	.	.	.	.
=167	=167	=167	=167	=167	=167	=167	=167	=167	=167	=167	=167	=167	=167	=167
!	!	!	!	!	!	!	!	!	!LO:TX:t=P:problem=mixed beam	!	!	!	!	!
8r	.	.	8r	.	8r	.	16r	.	16e#X|</LL	.	4.E#X\	Vir-	.	.
.	.	.	.	.	.	.	16dd\LL	.	16bb\	.	.	.	.	.
8E#X\L	7 5	.	8E#X\L	.	8g#X\L	.	(16cc#\	.	(16aa#X\	.	.	.	.	.
.	.	.	.	.	.	.	16dd\	.	16bb\	.	.	.	.	.
8E#\J	.	.	8E#\J	.	8g#\J	.	16cc#\	.	16aa#\	.	.	.	.	.
.	.	.	.	.	.	.	16dd\JJ)	.	16bb\JJ)	.	.	.	.	.
!LO:LB:g=original	!	!	!	!	!	!	!	!	!	!	!	!	!	!
=168	=168	=168	=168	=168	=168	=168	=168	=168	=168	=168	=168	=168	=168	=168
4F#\	#	.	4F#\	.	4c#/	.	8cc#|\L	.	8aa#X|\L	.	4F#\	-go	.	.
.	.	.	.	.	.	.	8ff#|\	.	8ff#|\	.	.	.	.	.
8r	.	.	8r	.	8r	.	8cc#|\J	.	8cc#|\J	.	8r	.	.	.
=169	=169	=169	=169	=169	=169	=169	=169	=169	=169	=169	=169	=169	=169	=169
8r	.	.	8r	.	8r	.	8dd|\L	.	8dd|\L	.	8r	.	.	.
8A#X|\L	.	.	8A#X\L	.	8a#X|\L	.	8a#X|\	.	8a#X|\	.	8A#X\	fe-	.	.
8B|\J	.	.	8B\J	.	8b|\J	.	8b|\J	.	8b|\J	.	8B\	-lix	.	.
!	!	!	!	!	!LO:LB:g=original	!	!LO:LB:g=original	!	!	!	!	!	!	!
=170	=170	=170	=170	=170	=170	=170	=170	=170	=170	=170	=170	=170	=170	=170
8F#|\L	.	.	8F#\L	.	8f#|\L	.	8f#|/L	.	8f#|/L	.	(8F#\L	Coe-	4.r	.
8G|\	.	.	8G\	.	8g|\	.	8g|/	.	8g|/	.	8G\J)	.	.	.
8E#X|\J	.	.	8E#X\J	.	8e#X|\J	.	8e#X|/J	.	8e#X|/J	.	8E#X\	-li	.	.
=171	=171	=171	=171	=171	=171	=171	=171	=171	=171	=171	=171	=171	=171	=171
4.F#;\	#3	.	4.F#;\	.	4f#\	.	4f#/	.	4f#/	.	4.F#;\	por-	4f#/	.
.	.	.	.	.	8r	.	8r	.	8r	.	.	.	8r	.
!	!	!	!	!	!	!	!	!	!	!	!LO:LB:g=original	!	!	!
=172	=172	=172	=172	=172	=172	=172	=172	=172	=172	=172	=172	=172	=172	=172
!LO:TX:b:t=172.	!	!	!	!	!LO:TX:b:t=172.	!	!LO:TX:b:t=172	!	!LO:TX:b:t=172.	!	!LO:TX:b:t=172.	!	!LO:TX:b:t=172.	!
!LO:TX:b:i:t=Da Capo	!	!	!LO:TX:b:i:t=Da Capo	!	!LO:TX:b:i:t=Da Capo.	!	!LO:TX:b:i:t=Da Capo.	!	!LO:TX:b:i:t=Da Capo.	!	!LO:TX:b:i:t=Da Capo.	!	!LO:TX:b:i:t=Da Capo.	!
4.BB/	.	.	4.BB/	.	4.r;	.	4.r;	.	4.r;	.	4.BB/	-ta	4.r;	.
==	==	==	==	==	==	==	==	==	==	==	==	==	==	==
*-	*-	*-	*-	*-	*-	*-	*-	*-	*-	*-	*-	*-	*-	*-
!!!system-decoration: s1,s2[(g1)]s7
!!!RDF**kern: > = above
!!!RDF**kern: < = below
!!!RDF**kern: | = vertical stroke
!!!ENC: Marta Opryszak
!!!END: 2022-03-28
!!!ENC: Marta Lawrence
!!!END: 2022-03-29
!!!YEC: Copyright 2022 Narodowy Instytut Fryderyka Chopina (https://polishscores.org)
!!!YEM: License CC-BY-4.0 (https://creativecommons.org/licenses/by/4.0)
